; generated by Slic3r 0.9.8 on 2013-03-15 at 10:13:16

; layer_height = 0.4
; perimeters = 3
; top_solid_layers = 3
; bottom_solid_layers = 3
; fill_density = 0.4
; perimeter_speed = 30
; infill_speed = 60
; travel_speed = 130
; scale = 1
; nozzle_diameter = 0.5
; filament_diameter = 1.75
; extrusion_multiplier = 1
; perimeters extrusion width = 0.53mm
; infill extrusion width = 0.53mm
; first layer extrusion width = 0.80mm

M107
M104 S200 ; set temperature
G28 ; home all axes
M109 S200 ; wait for temperature to be reached
G90 ; use absolute coordinates
G21 ; set units to millimeters
G92 E0
M82 ; use absolute distances for extrusion
G1 F1800.000 E-1.00000
G92 E0
G1 Z0.400 F7800.000
G1 X41.210 Y175.021
G1 F1800.000 E1.00000
G1 X40.700 Y174.611 F540.000 E1.08005
G1 X39.330 Y173.391 E1.30447
G1 X38.870 Y172.941 E1.38319
G1 X38.660 Y172.701 E1.42221
G1 X38.270 Y172.201 E1.49978
G1 X37.230 Y170.701 E1.72307
G1 X37.050 Y170.421 E1.76379
G1 X36.740 Y169.851 E1.84317
G1 X36.470 Y169.251 E1.92366
G1 X35.820 Y167.541 E2.14745
G1 X35.710 Y167.231 E2.18769
G1 X35.540 Y166.601 E2.26752
G1 X35.430 Y165.951 E2.34817
G1 X35.210 Y164.101 E2.57608
G1 X35.160 Y163.301 E2.67414
G1 X35.160 Y113.261 E8.79573
G1 X36.160 Y36.601 E18.17466
G1 X36.210 Y35.891 E18.26173
G1 X36.480 Y33.721 E18.52924
G1 X36.620 Y33.081 E18.60938
G1 X36.820 Y32.461 E18.68908
G1 X37.470 Y30.751 E18.91287
G1 X37.730 Y30.151 E18.99287
G1 X37.880 Y29.871 E19.03173
G1 X38.220 Y29.321 E19.11083
G1 X39.460 Y27.541 E19.37621
G1 X39.880 Y27.041 E19.45610
G1 X40.350 Y26.581 E19.53655
G1 X41.970 Y25.161 E19.80009
G1 X42.490 Y24.781 E19.87888
G1 X42.770 Y24.611 E19.91895
G1 X44.960 Y23.461 E20.22155
G1 X45.560 Y23.221 E20.30061
G1 X46.180 Y23.031 E20.37994
G1 X47.960 Y22.591 E20.60424
G1 X48.600 Y22.471 E20.68390
G1 X49.250 Y22.401 E20.76388
G1 X49.580 Y22.391 E20.80427
G1 X151.410 Y22.391 E33.26154
G1 X152.060 Y22.431 E33.34121
G1 X152.710 Y22.521 E33.42148
G1 X154.810 Y23.031 E33.68585
G1 X155.430 Y23.221 E33.76518
G1 X156.030 Y23.461 E33.84424
G1 X157.940 Y24.461 E34.10798
G1 X158.500 Y24.781 E34.18688
G1 X159.020 Y25.161 E34.26567
G1 X159.270 Y25.371 E34.30562
G1 X160.640 Y26.581 E34.52922
G1 X161.110 Y27.041 E34.60967
G1 X161.330 Y27.291 E34.65041
G1 X161.730 Y27.811 E34.73067
G1 X162.770 Y29.321 E34.95497
G1 X163.110 Y29.871 E35.03407
G1 X163.260 Y30.151 E35.07293
G1 X163.520 Y30.751 E35.15293
G1 X164.170 Y32.461 E35.37672
G1 X164.370 Y33.071 E35.45525
G1 X164.510 Y33.701 E35.53420
G1 X164.780 Y35.851 E35.79929
G1 X164.840 Y36.691 E35.90231
G1 X164.840 Y86.741 E42.02513
G1 X163.840 Y163.391 E51.40283
G1 X163.780 Y164.131 E51.49365
G1 X163.510 Y166.301 E51.76116
G1 X163.370 Y166.931 E51.84011
G1 X163.170 Y167.541 E51.91865
G1 X162.520 Y169.251 E52.14244
G1 X162.390 Y169.561 E52.18356
G1 X162.100 Y170.141 E52.26289
G1 X161.760 Y170.701 E52.34304
G1 X160.530 Y172.461 E52.60571
G1 X160.120 Y172.941 E52.68294
G1 X159.660 Y173.391 E52.76166
G1 X158.290 Y174.611 E52.98608
G1 X157.780 Y175.021 E53.06613
G1 X157.230 Y175.381 E53.14655
G1 X155.030 Y176.541 E53.45080
G1 X154.430 Y176.781 E53.52986
G1 X153.810 Y176.971 E53.60919
G1 X152.030 Y177.411 E53.83349
G1 X151.390 Y177.531 E53.91315
G1 X150.740 Y177.601 E53.99313
G1 X150.410 Y177.611 E54.03352
G1 X48.580 Y177.611 E66.49079
G1 X47.930 Y177.571 E66.57046
G1 X47.280 Y177.481 E66.65073
G1 X45.180 Y176.971 E66.91510
G1 X44.560 Y176.781 E66.99443
G1 X43.960 Y176.541 E67.07349
G1 X43.670 Y176.391 E67.11343
G1 X42.050 Y175.541 E67.33723
G1 X41.480 Y175.211 E67.41781
G1 X41.300 Y175.085 E67.44470
G1 X41.210 Y175.021 E67.45819
G1 F1800.000 E66.45819
G92 E0
G1 X145.481 Y166.253 F7800.000
G1 F1800.000 E1.00000
G1 X144.532 Y163.333 F540.000 E1.37554
G1 X145.481 Y160.414 E1.75108
G1 X147.965 Y158.609 E2.12666
G1 X151.035 Y158.609 E2.50225
G1 X153.519 Y160.414 E2.87783
G1 X154.468 Y163.333 E3.25337
G1 X153.519 Y166.253 E3.62891
G1 X151.035 Y168.058 E4.00449
G1 X147.965 Y168.058 E4.38007
G1 X145.571 Y166.318 E4.74216
G1 X145.481 Y166.253 E4.75566
G1 X146.107 Y165.798 F7800.000
G1 X145.306 Y163.333 F540.000 E5.07271
G1 X146.107 Y160.868 E5.38977
G1 X148.204 Y159.345 E5.70688
G1 X150.796 Y159.345 E6.02398
G1 X152.893 Y160.868 E6.34108
G1 X153.694 Y163.333 E6.65814
G1 X152.893 Y165.798 E6.97520
G1 X150.796 Y167.322 E7.29231
G1 X148.204 Y167.322 E7.60941
G1 X146.196 Y165.863 E7.91301
G1 X146.107 Y165.798 E7.92651
G1 X146.733 Y165.344 F7800.000
G1 X146.079 Y163.333 F540.000 E8.18509
G1 X146.733 Y161.323 E8.44367
G1 X148.443 Y160.080 E8.70230
G1 X150.557 Y160.080 E8.96091
G1 X152.267 Y161.323 E9.21954
G1 X152.921 Y163.333 E9.47812
G1 X152.267 Y165.344 E9.73670
G1 X150.557 Y166.586 E9.99533
G1 X148.443 Y166.586 E10.25394
G1 X146.822 Y165.408 E10.49907
G1 X146.733 Y165.344 E10.51257
G1 X145.997 Y165.344 F7800.000
G1 F1800.000 E9.51257
G92 E0
G1 X147.965 Y118.058 F7800.000
G1 F1800.000 E1.00000
G1 X145.481 Y116.253 F540.000 E1.37558
G1 X144.532 Y113.333 E1.75112
G1 X145.481 Y110.414 E2.12666
G1 X147.965 Y108.609 E2.50224
G1 X151.035 Y108.609 E2.87783
G1 X153.519 Y110.414 E3.25341
G1 X154.468 Y113.333 E3.62895
G1 X153.519 Y116.253 E4.00449
G1 X151.035 Y118.058 E4.38007
G1 X148.075 Y118.058 E4.74216
G1 X147.965 Y118.058 E4.75566
G1 X148.204 Y117.322 F7800.000
G1 X146.107 Y115.798 F540.000 E5.07276
G1 X145.306 Y113.333 E5.38982
G1 X146.107 Y110.868 E5.70688
G1 X148.204 Y109.345 E6.02398
G1 X150.796 Y109.345 E6.34108
G1 X152.893 Y110.868 E6.65819
G1 X153.694 Y113.333 E6.97525
G1 X152.893 Y115.798 E7.29231
G1 X150.796 Y117.322 E7.60941
G1 X148.314 Y117.322 E7.91301
G1 X148.204 Y117.322 E7.92651
G1 X148.443 Y116.586 F7800.000
G1 X146.733 Y115.344 F540.000 E8.18514
G1 X146.079 Y113.333 E8.44372
G1 X146.733 Y111.323 E8.70230
G1 X148.443 Y110.080 E8.96093
G1 X150.557 Y110.080 E9.21954
G1 X152.267 Y111.323 E9.47817
G1 X152.921 Y113.333 E9.73675
G1 X152.267 Y115.344 E9.99533
G1 X150.557 Y116.586 E10.25396
G1 X148.553 Y116.586 E10.49907
G1 X148.443 Y116.586 E10.51257
G1 X147.848 Y117.019 F7800.000
G1 F1800.000 E9.51257
G92 E0
G1 X54.468 Y113.333 F7800.000
G1 F1800.000 E1.00000
G1 X53.519 Y116.253 F540.000 E1.37554
G1 X51.035 Y118.058 E1.75112
G1 X47.965 Y118.058 E2.12671
G1 X45.481 Y116.253 E2.50229
G1 X44.532 Y113.333 E2.87783
G1 X45.481 Y110.414 E3.25337
G1 X47.965 Y108.609 E3.62895
G1 X51.035 Y108.609 E4.00453
G1 X53.519 Y110.414 E4.38012
G1 X54.433 Y113.228 E4.74216
G1 X54.468 Y113.333 E4.75566
G1 X53.694 Y113.333 F7800.000
G1 X52.893 Y115.798 F540.000 E5.07271
G1 X50.796 Y117.322 E5.38982
G1 X48.204 Y117.322 E5.70692
G1 X46.107 Y115.798 E6.02402
G1 X45.306 Y113.333 E6.34108
G1 X46.107 Y110.868 E6.65814
G1 X48.204 Y109.345 E6.97525
G1 X50.796 Y109.345 E7.29235
G1 X52.893 Y110.868 E7.60945
G1 X53.660 Y113.228 E7.91301
G1 X53.694 Y113.333 E7.92651
G1 X52.921 Y113.333 F7800.000
G1 X52.267 Y115.344 F540.000 E8.18509
G1 X50.557 Y116.586 E8.44372
G1 X48.443 Y116.586 E8.70233
G1 X46.733 Y115.344 E8.96096
G1 X46.079 Y113.333 E9.21954
G1 X46.733 Y111.323 E9.47812
G1 X48.443 Y110.080 E9.73675
G1 X50.557 Y110.080 E9.99536
G1 X52.267 Y111.323 E10.25399
G1 X52.886 Y113.228 E10.49907
G1 X52.921 Y113.333 E10.51257
G1 X53.516 Y113.766 F7800.000
G1 F1800.000 E9.51257
G92 E0
G1 X51.035 Y158.609 F7800.000
G1 F1800.000 E1.00000
G1 X53.519 Y160.414 F540.000 E1.37558
G1 X54.468 Y163.333 E1.75112
G1 X53.519 Y166.253 E2.12666
G1 X51.035 Y168.058 E2.50224
G1 X47.965 Y168.058 E2.87783
G1 X45.481 Y166.253 E3.25341
G1 X44.532 Y163.333 E3.62895
G1 X45.481 Y160.414 E4.00449
G1 X47.965 Y158.609 E4.38007
G1 X50.925 Y158.609 E4.74216
G1 X51.035 Y158.609 E4.75566
G1 X50.796 Y159.345 F7800.000
G1 X52.893 Y160.868 F540.000 E5.07276
G1 X53.694 Y163.333 E5.38982
G1 X52.893 Y165.798 E5.70688
G1 X50.796 Y167.322 E6.02398
G1 X48.204 Y167.322 E6.34108
G1 X46.107 Y165.798 E6.65819
G1 X45.306 Y163.333 E6.97525
G1 X46.107 Y160.868 E7.29231
G1 X48.204 Y159.345 E7.60941
G1 X50.686 Y159.345 E7.91301
G1 X50.796 Y159.345 E7.92651
G1 X50.557 Y160.080 F7800.000
G1 X52.267 Y161.323 F540.000 E8.18514
G1 X52.921 Y163.333 E8.44372
G1 X52.267 Y165.344 E8.70230
G1 X50.557 Y166.586 E8.96093
G1 X48.443 Y166.586 E9.21954
G1 X46.733 Y165.344 E9.47817
G1 X46.079 Y163.333 E9.73675
G1 X46.733 Y161.323 E9.99533
G1 X48.443 Y160.080 E10.25396
G1 X50.447 Y160.080 E10.49907
G1 X50.557 Y160.080 E10.51257
G1 X51.152 Y159.648 F7800.000
G1 F1800.000 E9.51257
G92 E0
G1 X150.237 Y107.263 F7800.000
G1 F1800.000 E1.00000
G1 X151.669 Y107.616 F540.000 E1.18043
G1 X152.974 Y108.301 E1.36078
G1 X154.077 Y109.278 E1.54109
G1 X154.915 Y110.492 E1.72148
G1 X155.438 Y111.869 E1.90174
G1 X155.629 Y113.446 E2.09606
G1 X155.629 Y163.220 E8.18513
G1 X155.438 Y164.797 E8.37946
G1 X154.915 Y166.175 E8.55972
G1 X154.077 Y167.388 E8.74011
G1 X152.974 Y168.366 E8.92041
G1 X151.669 Y169.051 E9.10076
G1 X150.237 Y169.404 E9.28120
G1 X48.763 Y169.404 E21.69482
G1 X47.331 Y169.051 E21.87526
G1 X46.026 Y168.366 E22.05561
G1 X44.923 Y167.388 E22.23591
G1 X44.085 Y166.175 E22.41630
G1 X43.562 Y164.797 E22.59656
G1 X43.371 Y163.220 E22.79089
G1 X43.371 Y113.446 E28.87996
G1 X43.562 Y111.869 E29.07428
G1 X44.085 Y110.492 E29.25454
G1 X44.923 Y109.278 E29.43493
G1 X46.026 Y108.301 E29.61523
G1 X47.331 Y107.616 E29.79559
G1 X48.763 Y107.263 E29.97602
G1 X150.126 Y107.263 E42.37615
G1 X150.237 Y107.263 E42.38965
G1 X150.326 Y106.527 F7800.000
G1 X151.931 Y106.923 F540.000 E42.59192
G1 X153.395 Y107.691 E42.79413
G1 X154.632 Y108.787 E42.99629
G1 X155.571 Y110.147 E43.19852
G1 X156.157 Y111.692 E43.40065
G1 X156.364 Y113.402 E43.61136
G1 X156.364 Y163.265 E49.71129
G1 X156.157 Y164.975 E49.92199
G1 X155.571 Y166.520 E50.12412
G1 X154.632 Y167.880 E50.32635
G1 X153.395 Y168.976 E50.52851
G1 X151.931 Y169.744 E50.73072
G1 X150.326 Y170.140 E50.93300
G1 X48.674 Y170.140 E63.36849
G1 X47.069 Y169.744 E63.57077
G1 X45.605 Y168.976 E63.77298
G1 X44.368 Y167.880 E63.97514
G1 X43.429 Y166.520 E64.17736
G1 X42.843 Y164.975 E64.37950
G1 X42.636 Y163.265 E64.59020
G1 X42.636 Y113.402 E70.69013
G1 X42.843 Y111.692 E70.90084
G1 X43.429 Y110.147 E71.10297
G1 X44.368 Y108.787 E71.30520
G1 X45.605 Y107.691 E71.50735
G1 X47.069 Y106.923 E71.70956
G1 X48.674 Y106.527 E71.91184
G1 X150.216 Y106.527 E84.33384
G1 X150.326 Y106.527 E84.34734
G1 X150.415 Y105.791 F7800.000
G1 X152.194 Y106.230 F540.000 E84.57146
G1 X153.816 Y107.081 E84.79553
G1 X155.186 Y108.296 E85.01953
G1 X156.227 Y109.803 E85.24360
G1 X156.877 Y111.515 E85.46761
G1 X157.100 Y113.357 E85.69469
G1 X157.100 Y163.309 E91.80548
G1 X156.877 Y165.152 E92.03256
G1 X156.227 Y166.864 E92.25657
G1 X155.186 Y168.371 E92.48064
G1 X153.816 Y169.586 E92.70465
G1 X152.194 Y170.437 E92.92872
G1 X150.415 Y170.875 E93.15284
G1 X48.585 Y170.875 E105.61020
G1 X46.806 Y170.437 E105.83433
G1 X45.184 Y169.586 E106.05839
G1 X43.814 Y168.371 E106.28240
G1 X42.773 Y166.864 E106.50647
G1 X42.123 Y165.152 E106.73048
G1 X41.900 Y163.309 E106.95756
G1 X41.900 Y113.357 E113.06835
G1 X42.123 Y111.515 E113.29543
G1 X42.773 Y109.803 E113.51944
G1 X43.814 Y108.296 E113.74351
G1 X45.184 Y107.081 E113.96751
G1 X46.806 Y106.230 E114.19158
G1 X48.585 Y105.791 E114.41570
G1 X150.305 Y105.791 E126.85957
G1 X150.415 Y105.791 E126.87307
G1 X150.676 Y106.479 F7800.000
G1 F1800.000 E125.87307
G92 E0
G1 X146.990 Y107.764 F7800.000
G1 F1800.000 E1.00000
G1 X147.458 Y108.232 F1080.000 E1.08105
G1 X146.994 Y108.809 E1.17166
G1 X145.949 Y107.764 E1.35257
G1 X144.908 Y107.764 E1.47996
G1 X146.391 Y109.248 E1.73669
G1 X145.789 Y109.686 E1.82789
G1 X143.867 Y107.764 E2.16043
G1 X142.826 Y107.764 E2.28782
G1 X145.186 Y110.124 E2.69618
G1 X144.876 Y110.853 E2.79317
G1 X141.786 Y107.764 E3.32785
G1 X140.746 Y107.764 E3.45524
G1 X144.620 Y111.638 E4.12589
G1 X144.365 Y112.424 E4.22699
G1 X139.705 Y107.764 E5.03360
G1 X138.664 Y107.764 E5.16099
G1 X144.110 Y113.209 E6.10356
G1 X144.266 Y114.407 E6.25137
G1 X137.623 Y107.764 E7.40120
G1 X136.582 Y107.764 E7.52859
G1 X144.767 Y115.949 E8.94531
G1 F1800.000 E7.94531
G92 E0
G1 X153.741 Y116.597 F7800.000
G1 F1800.000 E1.00000
G1 X155.127 Y117.983 F1080.000 E1.23998
G1 X155.127 Y119.024 E1.36736
G1 X153.138 Y117.035 E1.71168
G1 X152.535 Y117.473 E1.80288
G1 X155.127 Y120.065 E2.25151
G1 X155.128 Y121.105 E2.37882
G1 X151.933 Y117.910 E2.93179
G1 X151.330 Y118.348 E3.02299
G1 X155.128 Y122.146 E3.68028
G1 X155.128 Y123.187 E3.80767
G1 X150.500 Y118.559 E4.60869
G1 X149.459 Y118.559 E4.73607
G1 X155.128 Y124.227 E5.71722
G1 X155.128 Y125.268 E5.84461
G1 X148.418 Y118.559 E7.00592
G1 X147.072 Y118.254 E7.17482
G1 X155.127 Y126.309 E8.56907
G1 X155.127 Y127.350 E8.69646
G1 X135.541 Y107.764 E12.08649
G1 X134.501 Y107.764 E12.21388
G1 X155.127 Y128.391 E15.78406
G1 X155.127 Y129.432 E15.91145
G1 X133.460 Y107.764 E19.66177
G1 X132.419 Y107.764 E19.78916
G1 X155.127 Y130.472 E23.71963
G1 X155.127 Y131.513 E23.84703
G1 X131.378 Y107.764 E27.95765
G1 X130.337 Y107.764 E28.08504
G1 X155.127 Y132.554 E32.37582
G1 X155.127 Y133.595 E32.50321
G1 X129.296 Y107.764 E36.97413
G1 X128.256 Y107.764 E37.10152
G1 X155.127 Y134.636 E41.75260
G1 X155.127 Y135.677 E41.87999
G1 X127.215 Y107.764 E46.71122
G1 X126.174 Y107.764 E46.83861
G1 X155.127 Y136.718 E51.84999
G1 X155.127 Y137.758 E51.97738
G1 X125.133 Y107.764 E57.16890
G1 X124.092 Y107.764 E57.29629
G1 X155.127 Y138.799 E62.66797
G1 X155.127 Y139.839 E62.79528
G1 X123.052 Y107.764 E68.34698
G1 X122.011 Y107.764 E68.47437
G1 X155.127 Y140.880 E74.20623
G1 X155.127 Y141.921 E74.33353
G1 X120.971 Y107.764 E80.24554
G1 X119.930 Y107.764 E80.37293
G1 X155.127 Y142.961 E86.46509
G1 X155.127 Y144.002 E86.59248
G1 X118.889 Y107.764 E92.86478
G1 X117.848 Y107.764 E92.99217
G1 X155.127 Y145.043 E99.44463
G1 X155.127 Y146.084 E99.57202
G1 X116.807 Y107.764 E106.20463
G1 X115.766 Y107.764 E106.33202
G1 X155.127 Y147.125 E113.14478
G1 X155.127 Y148.166 E113.27217
G1 X114.726 Y107.764 E120.26508
G1 X113.685 Y107.764 E120.39247
G1 X155.127 Y149.207 E127.56553
G1 X155.127 Y150.247 E127.69292
G1 X112.644 Y107.764 E135.04613
G1 X111.603 Y107.764 E135.17352
G1 X155.127 Y151.288 E142.70688
G1 X155.127 Y152.329 E142.83427
G1 X110.562 Y107.764 E150.54778
G1 X109.521 Y107.764 E150.67517
G1 X155.127 Y153.370 E158.56883
G1 X155.127 Y154.411 E158.69622
G1 X108.481 Y107.764 E166.77003
G1 X107.440 Y107.764 E166.89742
G1 X155.127 Y155.452 E175.15138
G1 X155.127 Y156.493 E175.27877
G1 X106.399 Y107.764 E183.71288
G1 X105.358 Y107.764 E183.84027
G1 X155.127 Y157.533 E192.45454
G1 X155.127 Y158.574 E192.58193
G1 X104.317 Y107.764 E201.37634
G1 X103.276 Y107.764 E201.50373
G1 X155.127 Y159.615 E210.47830
G1 X155.127 Y160.655 E210.60560
G1 X102.236 Y107.764 E219.76019
G1 X101.195 Y107.764 E219.88758
G1 X151.620 Y158.190 E228.61539
G1 X150.499 Y158.108 E228.75302
G1 X100.155 Y107.764 E237.46675
G1 X99.114 Y107.764 E237.59414
G1 X149.458 Y158.108 E246.30787
G1 X148.417 Y158.108 E246.43526
G1 X98.073 Y107.764 E255.14898
G1 X97.032 Y107.764 E255.27637
G1 X147.621 Y158.353 E264.03256
G1 X147.019 Y158.791 E264.12375
G1 X95.991 Y107.764 E272.95580
G1 X94.951 Y107.764 E273.08319
G1 X146.416 Y159.229 E281.99101
G1 X145.813 Y159.667 E282.08220
G1 X93.910 Y107.764 E291.06588
G1 X92.869 Y107.764 E291.19327
G1 X145.210 Y160.105 E300.25272
G1 X144.886 Y160.821 F7800.000
G1 X91.828 Y107.764 F1080.000 E309.43613
G1 X90.787 Y107.764 E309.56352
G1 X144.630 Y161.607 E318.88290
G1 X144.375 Y162.393 E318.98400
G1 X89.747 Y107.764 E328.43935
G1 X88.706 Y107.764 E328.56674
G1 X144.120 Y163.178 E338.15806
G1 X144.246 Y164.345 E338.30168
G1 X87.665 Y107.764 E348.09493
G1 X86.624 Y107.764 E348.22232
G1 X144.747 Y165.887 E358.28250
G1 X146.722 Y168.903 E358.72370
G1 X85.583 Y107.764 E369.30586
G1 X84.542 Y107.764 E369.43325
G1 X145.681 Y168.903 E380.01541
G1 X144.640 Y168.903 E380.14280
G1 X83.502 Y107.764 E390.72494
G1 X82.461 Y107.764 E390.85232
G1 X143.599 Y168.903 E401.43446
G1 X142.559 Y168.903 E401.56185
G1 X81.420 Y107.764 E412.14398
G1 X80.379 Y107.764 E412.27136
G1 X141.518 Y168.903 E422.85348
G1 X140.478 Y168.902 E422.98078
G1 X79.339 Y107.764 E433.56291
G1 X78.298 Y107.764 E433.69029
G1 X139.437 Y168.902 E444.27239
G1 X138.396 Y168.902 E444.39978
G1 X77.257 Y107.764 E454.98189
G1 X76.217 Y107.764 E455.10927
G1 X137.355 Y168.902 E465.69137
G1 X136.314 Y168.902 E465.81876
G1 X75.176 Y107.764 E476.40086
G1 X74.135 Y107.764 E476.52824
G1 X135.273 Y168.902 E487.11032
G1 X134.232 Y168.902 E487.23771
G1 X73.094 Y107.764 E497.81980
G1 X72.053 Y107.764 E497.94718
G1 X133.192 Y168.902 E508.52925
G1 X132.151 Y168.902 E508.65664
G1 X71.012 Y107.764 E519.23871
G1 X69.972 Y107.764 E519.36609
G1 X131.111 Y168.903 E529.94827
G1 X130.070 Y168.903 E530.07566
G1 X68.931 Y107.764 E540.65784
G1 X67.890 Y107.764 E540.78522
G1 X129.029 Y168.903 E551.36739
G1 X127.988 Y168.903 E551.49478
G1 X66.849 Y107.764 E562.07695
G1 X65.808 Y107.764 E562.20433
G1 X126.947 Y168.903 E572.78649
G1 X125.906 Y168.903 E572.91388
G1 X64.767 Y107.764 E583.49604
G1 X63.727 Y107.764 E583.62342
G1 X124.865 Y168.903 E594.20557
G1 X123.824 Y168.903 E594.33296
G1 X62.686 Y107.764 E604.91510
G1 X61.645 Y107.764 E605.04248
G1 X122.784 Y168.903 E615.62461
G1 X121.743 Y168.903 E615.75200
G1 X60.604 Y107.764 E626.33414
G1 X59.563 Y107.764 E626.46152
G1 X120.702 Y168.903 E637.04364
G1 X119.662 Y168.902 E637.17094
G1 X58.523 Y107.764 E647.75306
G1 X57.482 Y107.764 E647.88044
G1 X118.621 Y168.902 E658.46255
G1 X117.580 Y168.902 E658.58992
G1 X56.441 Y107.764 E669.17206
G1 X55.401 Y107.764 E669.29944
G1 X116.539 Y168.902 E679.88156
G1 X115.499 Y168.902 E680.00894
G1 X54.360 Y107.764 E690.59107
G1 F1800.000 E689.59107
G92 E0
G1 X54.253 Y110.780 F7800.000
G1 F1800.000 E1.00000
G1 X112.376 Y168.903 F1080.000 E11.06016
G1 X111.335 Y168.903 E11.18754
G1 X54.754 Y112.322 E20.98081
G1 X54.880 Y113.489 E21.12447
G1 X110.294 Y168.903 E30.71576
G1 X109.254 Y168.903 E30.84314
G1 X54.625 Y114.274 E40.29847
G1 X54.370 Y115.060 E40.39956
G1 X108.213 Y168.903 E49.71894
G1 X107.172 Y168.903 E49.84631
G1 X54.114 Y115.845 E59.02973
G1 X53.790 Y116.561 F7800.000
G1 X106.131 Y168.903 F1080.000 E68.08924
G1 X105.090 Y168.903 E68.21662
G1 X53.187 Y116.999 E77.20032
G1 X52.584 Y117.437 E77.29150
G1 X104.050 Y168.903 E86.19938
G1 X103.009 Y168.903 E86.32676
G1 X51.981 Y117.875 E95.15883
G1 X51.378 Y118.313 E95.25002
G1 X101.968 Y168.903 E104.00627
G1 X100.927 Y168.903 E104.13365
G1 X50.584 Y118.559 E112.84734
G1 X49.543 Y118.559 E112.97471
G1 X99.886 Y168.903 E121.68840
G1 X98.846 Y168.903 E121.81578
G1 X48.502 Y118.559 E130.52947
G1 X47.380 Y118.478 E130.66716
G1 X97.805 Y168.903 E139.39491
G1 X96.764 Y168.903 E139.52230
G1 X43.873 Y116.011 E148.67696
G1 X43.873 Y117.052 E148.80433
G1 X95.723 Y168.903 E157.77885
G1 X94.683 Y168.903 E157.90623
G1 X43.873 Y118.093 E166.70060
G1 X43.873 Y119.134 E166.82797
G1 X93.642 Y168.903 E175.44220
G1 X92.601 Y168.903 E175.56959
G1 X43.873 Y120.174 E184.00367
G1 X43.873 Y121.215 E184.13104
G1 X91.560 Y168.903 E192.38498
G1 X90.519 Y168.903 E192.51236
G1 X43.873 Y122.256 E200.58616
G1 X43.873 Y123.297 E200.71353
G1 X89.479 Y168.903 E208.60719
G1 X88.438 Y168.903 E208.73457
G1 X43.873 Y124.338 E216.44807
G1 X43.873 Y125.378 E216.57545
G1 X87.397 Y168.903 E224.10881
G1 X86.356 Y168.903 E224.23619
G1 X43.873 Y126.419 E231.58941
G1 X43.873 Y127.460 E231.71678
G1 X85.315 Y168.903 E238.88986
G1 X84.275 Y168.903 E239.01724
G1 X43.873 Y128.501 E246.01017
G1 X43.873 Y129.541 E246.13754
G1 X83.234 Y168.903 E252.95033
G1 X82.193 Y168.903 E253.07771
G1 X43.873 Y130.582 E259.71035
G1 X43.873 Y131.623 E259.83773
G1 X81.152 Y168.903 E266.29022
G1 X80.111 Y168.903 E266.41760
G1 X43.873 Y132.664 E272.68996
G1 X43.873 Y133.705 E272.81733
G1 X79.071 Y168.903 E278.90954
G1 X78.030 Y168.903 E279.03692
G1 X43.873 Y134.746 E284.94899
G1 X43.873 Y135.786 E285.07636
G1 X76.989 Y168.903 E290.80828
G1 X75.948 Y168.903 E290.93566
G1 X43.873 Y136.827 E296.48744
G1 X43.873 Y137.868 E296.61481
G1 X74.907 Y168.903 E301.98644
G1 X73.867 Y168.903 E302.11382
G1 X43.873 Y138.909 E307.30531
G1 X43.873 Y139.949 E307.43268
G1 X72.826 Y168.903 E312.44403
G1 X71.785 Y168.903 E312.57141
G1 X43.873 Y140.990 E317.40261
G1 X43.873 Y142.031 E317.52998
G1 X70.744 Y168.903 E322.18104
G1 X69.704 Y168.903 E322.30842
G1 X43.873 Y143.072 E326.77933
G1 X43.873 Y144.113 E326.90670
G1 X68.663 Y168.903 E331.19747
G1 X67.622 Y168.903 E331.32485
G1 X43.873 Y145.153 E335.43547
G1 X43.873 Y146.194 E335.56285
G1 X66.581 Y168.903 E339.49332
G1 X65.540 Y168.903 E339.62070
G1 X43.873 Y147.235 E343.37104
G1 X43.873 Y148.276 E343.49841
G1 X64.500 Y168.903 E347.06860
G1 X63.459 Y168.903 E347.19597
G1 X43.873 Y149.317 E350.58602
G1 F1800.000 E349.58602
G92 E0
G1 X47.670 Y158.318 F7800.000
G1 F1800.000 E1.00000
G1 X43.873 Y154.520 F1080.000 E1.65731
G1 X43.873 Y155.561 E1.78469
G1 X47.068 Y158.756 E2.33766
G1 X46.465 Y159.194 E2.42886
G1 X43.873 Y156.602 E2.87751
G1 X43.873 Y157.643 E3.00489
G1 X45.862 Y159.632 E3.34920
G1 X45.259 Y160.070 E3.44040
G1 X43.873 Y158.684 E3.68039
G1 X43.873 Y159.724 E3.80777
G1 X44.906 Y160.758 E3.98665
G1 F1800.000 E2.98665
G92 E0
G1 X48.501 Y158.108 F7800.000
G1 F1800.000 E1.00000
G1 X43.873 Y153.480 F1080.000 E1.80102
G1 X43.873 Y152.439 E1.92840
G1 X49.541 Y158.108 E2.90957
G1 X50.582 Y158.108 E3.03695
G1 X43.873 Y151.398 E4.19826
G1 X43.873 Y150.357 E4.32564
G1 X51.928 Y158.413 E5.71995
G1 F1800.000 E4.71995
G92 E0
G1 X54.233 Y160.717 F7800.000
G1 F1800.000 E1.00000
G1 X62.418 Y168.903 F1080.000 E2.41673
G1 X61.377 Y168.903 E2.54410
G1 X54.734 Y162.259 E3.69396
G1 X54.891 Y163.457 E3.84177
G1 X60.336 Y168.903 E4.78435
G1 X59.296 Y168.903 E4.91172
G1 X54.635 Y164.242 E5.71834
G1 X54.380 Y165.028 E5.81943
G1 X58.255 Y168.903 E6.49009
G1 X57.214 Y168.903 E6.61747
G1 X54.125 Y165.813 E7.15218
G1 X53.814 Y166.543 E7.24929
G1 X56.173 Y168.903 E7.65765
G1 X55.133 Y168.903 E7.78502
G1 X53.211 Y166.981 E8.11757
G1 X52.608 Y167.419 E8.20877
G1 X54.092 Y168.903 E8.46550
G1 X53.051 Y168.903 E8.59287
G1 X52.006 Y167.857 E8.77379
G1 X51.542 Y168.434 E8.86440
G1 X52.010 Y168.903 E8.94547
G1 F1800.000 E7.94547
G92 E0
G1 X113.417 Y168.903 F7800.000
G1 F1800.000 E1.00000
G1 X52.278 Y107.764 F1080.000 E11.58213
G1 X53.319 Y107.764 E11.70952
G1 X114.458 Y168.902 E22.29164
G1 F1800.000 E21.29164
G92 E0
G1 X155.127 Y116.942 F7800.000
G1 F1800.000 E1.00000
G1 X154.094 Y115.909 F1080.000 E1.17889
G1 F1800.000 E0.17889
G92 E0
G1 X48.111 Y168.759 F7800.000
G1 F1800.000 E1.00000
G1 X47.843 Y168.491 F360.000 E1.02844
G1 X48.481 Y168.491 E1.07624
G1 X48.958 Y168.968 E1.12679
G1 X49.118 Y168.491 E1.16451
G1 X49.597 Y168.970 E1.21528
G1 X49.755 Y168.491 E1.25313
G1 X50.235 Y168.971 E1.30398
G1 X50.393 Y168.491 E1.34183
G1 X50.873 Y168.971 E1.39268
G1 X51.299 Y168.759 E1.42834
G1 X51.031 Y168.491 E1.45678
G1 F1800.000 E0.45678
G92 E0
G1 X45.486 Y167.144 F7800.000
G1 F1800.000 E1.00000
G1 X47.813 Y168.686 F360.000 E1.25777
G1 F1800.000 E0.25777
G92 E0
G1 X45.067 Y166.539 F7800.000
G1 F1800.000 E1.00000
G1 X44.799 Y166.270 F360.000 E1.02976
G1 X44.746 Y165.550 E1.08643
G1 X44.143 Y164.947 E1.15339
G1 X44.425 Y164.562 E1.19085
G1 X43.927 Y164.064 E1.24612
G1 X44.104 Y163.573 E1.28703
G1 X43.836 Y163.305 E1.31679
G1 X44.373 Y162.294 F7800.000
G1 X43.905 Y161.825 F360.000 E1.39778
G1 F1800.000 E0.39778
G92 E0
G1 X44.373 Y115.235 F7800.000
G1 F1800.000 E1.00000
G1 X43.905 Y114.767 F360.000 E1.08102
G1 X44.104 Y113.362 F7800.000
G1 X43.835 Y113.094 F360.000 E1.11024
G1 X44.264 Y112.868 E1.14758
G1 X43.906 Y112.509 E1.18660
G1 X44.425 Y112.373 E1.22792
G1 X43.977 Y111.925 E1.27673
G1 X44.147 Y111.440 E1.31630
G1 X44.586 Y111.879 E1.36408
G1 X44.746 Y111.385 E1.40411
G1 X44.327 Y110.966 E1.44976
G1 X44.532 Y110.515 E1.48786
G1 X44.907 Y110.890 E1.52874
G1 X45.068 Y110.396 E1.56877
G1 X44.800 Y110.128 E1.59799
G1 X45.278 Y110.091 F7800.000
G1 X45.010 Y109.823 F360.000 E1.62590
G1 X45.280 Y109.467 E1.65871
G1 X45.641 Y109.828 E1.69620
G1 X46.003 Y109.565 E1.72911
G1 X45.612 Y109.174 E1.76979
G1 X45.943 Y108.880 E1.80236
G1 X46.365 Y109.302 E1.84622
G1 X46.727 Y109.038 E1.87914
G1 X46.288 Y108.600 E1.92477
G1 X46.698 Y108.385 E1.95882
G1 X47.089 Y108.775 E1.99945
G1 X47.451 Y108.512 E2.03236
G1 X47.108 Y108.169 E2.06801
G1 X47.545 Y107.981 E2.10298
G1 X47.813 Y108.249 E2.13088
G1 X48.112 Y108.175 F7800.000
G1 X47.843 Y107.907 F360.000 E2.16182
G1 X48.399 Y107.770 E2.20853
G1 X48.805 Y108.175 E2.25530
G1 X49.019 Y107.696 E2.29810
G1 X49.498 Y108.176 E2.35337
G1 X49.712 Y107.696 E2.39618
G1 X50.192 Y108.176 E2.45145
G1 X50.406 Y107.696 E2.49425
G1 X50.885 Y108.176 E2.54952
G1 X51.099 Y107.696 E2.59234
G1 X51.368 Y107.965 E2.62329
G1 F1800.000 E1.62329
G92 E0
G1 X147.969 Y108.175 F7800.000
G1 F1800.000 E1.00000
G1 X147.701 Y107.907 F360.000 E1.02846
G1 X148.128 Y107.696 E1.06416
G1 X148.607 Y108.175 E1.11497
G1 X148.765 Y107.697 E1.15276
G1 X149.244 Y108.176 E1.20358
G1 X149.402 Y107.696 E1.24143
G1 X149.882 Y108.176 E1.29225
G1 X150.042 Y107.698 E1.33000
G1 X150.519 Y108.176 E1.38059
G1 X150.889 Y107.907 E1.41482
G1 X151.157 Y108.175 E1.44327
G1 X151.456 Y108.249 F7800.000
G1 X153.784 Y109.792 F360.000 E1.70122
G1 F1800.000 E0.70122
G92 E0
G1 X155.164 Y113.362 F7800.000
G1 F1800.000 E1.00000
G1 X154.896 Y113.093 F360.000 E1.02978
G1 X155.073 Y112.603 E1.07072
G1 X154.575 Y112.105 E1.12596
G1 X154.857 Y111.720 E1.16343
G1 X154.254 Y111.116 E1.23042
G1 X154.201 Y110.397 E1.28702
G1 X153.932 Y110.128 E1.31682
G1 F1800.000 E0.31682
G92 E0
G1 X154.974 Y115.215 F7800.000
G1 F1800.000 E1.00000
G1 X154.505 Y114.747 F360.000 E1.08103
G1 F1800.000 E0.08103
G92 E0
G1 X155.095 Y162.294 F7800.000
G1 F1800.000 E1.00000
G1 X154.627 Y161.826 F360.000 E1.08099
G1 F1800.000 E0.08099
G92 E0
G1 X154.200 Y166.539 F7800.000
G1 F1800.000 E1.00000
G1 X153.932 Y166.271 F360.000 E1.02921
G1 X154.093 Y165.777 E1.06924
G1 X154.468 Y166.152 E1.11008
G1 X154.673 Y165.701 E1.14825
G1 X154.254 Y165.282 E1.19387
G1 X154.414 Y164.788 E1.23389
G1 X154.853 Y165.226 E1.28167
G1 X155.023 Y164.741 E1.32125
G1 X154.575 Y164.293 E1.37003
G1 X154.736 Y163.799 E1.41005
G1 X155.094 Y164.157 E1.44905
G1 X155.164 Y163.573 E1.49436
G1 X154.896 Y163.305 E1.52357
G1 F1800.000 E0.52357
G92 E0
G1 X151.455 Y168.686 F7800.000
G1 F1800.000 E1.00000
G1 X151.187 Y168.418 F360.000 E1.02789
G1 X151.549 Y168.155 E1.06079
G1 X151.891 Y168.497 E1.09640
G1 X152.301 Y168.282 E1.13045
G1 X151.911 Y167.892 E1.17106
G1 X152.273 Y167.629 E1.20396
G1 X152.711 Y168.067 E1.24957
G1 X153.057 Y167.786 E1.28232
G1 X152.636 Y167.365 E1.32617
G1 X152.998 Y167.102 E1.35907
G1 X153.389 Y167.493 E1.39975
G1 X153.720 Y167.199 E1.43231
G1 X153.360 Y166.839 E1.46976
G1 X153.722 Y166.576 E1.50266
G1 X153.990 Y166.844 E1.53055
G1 F1800.000 E0.53055
G92 E0
G1 X147.900 Y168.970 F7800.000
G1 F1800.000 E1.00000
G1 X147.632 Y168.702 F360.000 E1.03093
G1 X148.115 Y168.491 E1.07392
G1 X148.594 Y168.970 E1.12923
G1 X148.809 Y168.492 E1.17200
G1 X149.287 Y168.970 E1.22723
G1 X149.501 Y168.492 E1.27000
G1 X149.980 Y168.970 E1.32523
G1 X150.195 Y168.491 E1.36808
G1 X150.601 Y168.896 E1.41483
G1 X150.888 Y168.491 E1.45535
G1 X151.157 Y168.760 E1.48636
G1 F1800.000 E0.48636
G92 E0
G1 X152.035 Y81.942 F7800.000
G1 F1800.000 E1.00000
G1 X154.519 Y83.747 F540.000 E1.37558
G1 X155.468 Y86.667 E1.75112
G1 X154.519 Y89.586 E2.12666
G1 X152.035 Y91.391 E2.50224
G1 X148.965 Y91.391 E2.87783
G1 X146.481 Y89.586 E3.25340
G1 X145.532 Y86.667 E3.62895
G1 X146.481 Y83.747 E4.00449
G1 X148.965 Y81.942 E4.38007
G1 X151.925 Y81.942 E4.74215
G1 X152.035 Y81.942 E4.75565
G1 X151.796 Y82.678 F7800.000
G1 X153.893 Y84.202 F540.000 E5.07276
G1 X154.694 Y86.667 E5.38982
G1 X153.893 Y89.131 E5.70688
G1 X151.796 Y90.655 E6.02398
G1 X149.204 Y90.655 E6.34108
G1 X147.107 Y89.132 E6.65818
G1 X146.306 Y86.667 E6.97524
G1 X147.107 Y84.202 E7.29231
G1 X149.204 Y82.678 E7.60941
G1 X151.686 Y82.678 E7.91301
G1 X151.796 Y82.678 E7.92651
G1 X151.557 Y83.414 F7800.000
G1 X153.267 Y84.656 F540.000 E8.18514
G1 X153.921 Y86.667 E8.44372
G1 X153.267 Y88.677 E8.70230
G1 X151.557 Y89.920 E8.96093
G1 X149.443 Y89.920 E9.21954
G1 X147.733 Y88.677 E9.47817
G1 X147.079 Y86.667 E9.73675
G1 X147.733 Y84.656 E9.99533
G1 X149.443 Y83.414 E10.25395
G1 X151.447 Y83.414 E10.49907
G1 X151.557 Y83.414 E10.51257
G1 X152.152 Y82.981 F7800.000
G1 F1800.000 E9.51257
G92 E0
G1 X152.035 Y41.391 F7800.000
G1 F1800.000 E1.00000
G1 X148.965 Y41.391 F540.000 E1.37559
G1 X146.481 Y39.586 E1.75117
G1 X145.532 Y36.667 E2.12671
G1 X146.481 Y33.747 E2.50225
G1 X148.965 Y31.942 E2.87783
G1 X152.035 Y31.942 E3.25341
G1 X154.519 Y33.747 E3.62899
G1 X155.468 Y36.667 E4.00453
G1 X154.519 Y39.586 E4.38007
G1 X152.124 Y41.326 E4.74215
G1 X152.035 Y41.391 E4.75565
G1 X151.796 Y40.655 F7800.000
G1 X149.204 Y40.655 F540.000 E5.07275
G1 X147.107 Y39.132 E5.38986
G1 X146.306 Y36.667 E5.70692
G1 X147.107 Y34.202 E6.02398
G1 X149.204 Y32.678 E6.34108
G1 X151.796 Y32.678 E6.65818
G1 X153.893 Y34.202 E6.97528
G1 X154.694 Y36.667 E7.29234
G1 X153.893 Y39.131 E7.60940
G1 X151.885 Y40.590 E7.91301
G1 X151.796 Y40.655 E7.92651
G1 X151.557 Y39.920 F7800.000
G1 X149.443 Y39.920 F540.000 E8.18512
G1 X147.733 Y38.677 E8.44375
G1 X147.079 Y36.667 E8.70233
G1 X147.733 Y34.656 E8.96091
G1 X149.443 Y33.414 E9.21954
G1 X151.557 Y33.414 E9.47815
G1 X153.267 Y34.656 E9.73678
G1 X153.921 Y36.667 E9.99536
G1 X153.267 Y38.677 E10.25394
G1 X151.646 Y39.855 E10.49907
G1 X151.557 Y39.920 E10.51257
G1 X151.330 Y40.619 F7800.000
G1 F1800.000 E9.51257
G92 E0
G1 X55.468 Y36.667 F7800.000
G1 F1800.000 E1.00000
G1 X54.519 Y39.586 F540.000 E1.37554
G1 X52.035 Y41.391 E1.75112
G1 X48.965 Y41.391 E2.12671
G1 X46.481 Y39.586 E2.50229
G1 X45.532 Y36.667 E2.87783
G1 X46.481 Y33.747 E3.25337
G1 X48.965 Y31.942 E3.62895
G1 X52.035 Y31.942 E4.00453
G1 X54.519 Y33.747 E4.38012
G1 X55.433 Y36.562 E4.74216
G1 X55.468 Y36.667 E4.75566
G1 X54.694 Y36.667 F7800.000
G1 X53.893 Y39.131 F540.000 E5.07271
G1 X51.796 Y40.655 E5.38982
G1 X49.204 Y40.655 E5.70692
G1 X47.107 Y39.131 E6.02402
G1 X46.306 Y36.667 E6.34108
G1 X47.107 Y34.202 E6.65814
G1 X49.204 Y32.678 E6.97525
G1 X51.796 Y32.678 E7.29235
G1 X53.893 Y34.202 E7.60945
G1 X54.660 Y36.562 E7.91301
G1 X54.694 Y36.667 E7.92651
G1 X53.921 Y36.667 F7800.000
G1 X53.267 Y38.677 F540.000 E8.18509
G1 X51.557 Y39.920 E8.44372
G1 X49.443 Y39.920 E8.70233
G1 X47.733 Y38.677 E8.96096
G1 X47.079 Y36.667 E9.21954
G1 X47.733 Y34.656 E9.47812
G1 X49.443 Y33.414 E9.73675
G1 X51.557 Y33.414 E9.99536
G1 X53.267 Y34.656 E10.25399
G1 X53.886 Y36.562 E10.49907
G1 X53.921 Y36.667 E10.51257
G1 X54.516 Y37.099 F7800.000
G1 F1800.000 E9.51257
G92 E0
G1 X52.035 Y81.942 F7800.000
G1 F1800.000 E1.00000
G1 X54.519 Y83.747 F540.000 E1.37558
G1 X55.468 Y86.667 E1.75112
G1 X54.519 Y89.586 E2.12666
G1 X52.035 Y91.391 E2.50224
G1 X48.965 Y91.391 E2.87783
G1 X46.481 Y89.586 E3.25341
G1 X45.532 Y86.667 E3.62895
G1 X46.481 Y83.747 E4.00449
G1 X48.965 Y81.942 E4.38007
G1 X51.925 Y81.942 E4.74216
G1 X52.035 Y81.942 E4.75566
G1 X51.796 Y82.678 F7800.000
G1 X53.893 Y84.202 F540.000 E5.07276
G1 X54.694 Y86.667 E5.38982
G1 X53.893 Y89.131 E5.70688
G1 X51.796 Y90.655 E6.02398
G1 X49.204 Y90.655 E6.34108
G1 X47.107 Y89.131 E6.65819
G1 X46.306 Y86.667 E6.97525
G1 X47.107 Y84.202 E7.29231
G1 X49.204 Y82.678 E7.60941
G1 X51.686 Y82.678 E7.91301
G1 X51.796 Y82.678 E7.92651
G1 X51.557 Y83.414 F7800.000
G1 X53.267 Y84.656 F540.000 E8.18514
G1 X53.921 Y86.667 E8.44372
G1 X53.267 Y88.677 E8.70230
G1 X51.557 Y89.920 E8.96093
G1 X49.443 Y89.920 E9.21954
G1 X47.733 Y88.677 E9.47817
G1 X47.079 Y86.667 E9.73675
G1 X47.733 Y84.656 E9.99533
G1 X49.443 Y83.414 E10.25396
G1 X51.447 Y83.414 E10.49907
G1 X51.557 Y83.414 E10.51257
G1 X52.152 Y82.981 F7800.000
G1 F1800.000 E9.51257
G92 E0
G1 X155.077 Y32.612 F7800.000
G1 F1800.000 E1.00000
G1 X155.915 Y33.825 F540.000 E1.18039
G1 X156.438 Y35.203 E1.36065
G1 X156.629 Y36.780 E1.55497
G1 X156.629 Y86.554 E7.64404
G1 X156.438 Y88.131 E7.83837
G1 X155.915 Y89.508 E8.01863
G1 X155.077 Y90.722 E8.19902
G1 X153.974 Y91.699 E8.37932
G1 X152.669 Y92.384 E8.55967
G1 X151.237 Y92.737 E8.74011
G1 X49.763 Y92.737 E21.15373
G1 X48.331 Y92.384 E21.33417
G1 X47.026 Y91.699 E21.51452
G1 X45.923 Y90.722 E21.69482
G1 X45.085 Y89.508 E21.87521
G1 X44.562 Y88.131 E22.05547
G1 X44.371 Y86.554 E22.24980
G1 X44.371 Y36.780 E28.33887
G1 X44.562 Y35.203 E28.53319
G1 X45.085 Y33.825 E28.71345
G1 X45.923 Y32.612 E28.89384
G1 X47.026 Y31.634 E29.07415
G1 X48.331 Y30.949 E29.25450
G1 X49.763 Y30.596 E29.43493
G1 X151.237 Y30.596 E41.84856
G1 X152.669 Y30.949 E42.02899
G1 X153.974 Y31.634 E42.20934
G1 X154.995 Y32.538 E42.37615
G1 X155.077 Y32.612 E42.38965
G1 X155.590 Y32.084 F7800.000
G1 X155.632 Y32.120 F540.000 E42.39640
G1 X156.571 Y33.480 E42.59863
G1 X157.157 Y35.025 E42.80077
G1 X157.364 Y36.735 E43.01147
G1 X157.364 Y86.598 E49.11140
G1 X157.157 Y88.308 E49.32210
G1 X156.571 Y89.853 E49.52424
G1 X155.632 Y91.213 E49.72647
G1 X154.395 Y92.309 E49.92862
G1 X152.931 Y93.077 E50.13083
G1 X151.326 Y93.473 E50.33311
G1 X49.674 Y93.473 E62.76861
G1 X48.069 Y93.077 E62.97088
G1 X46.605 Y92.309 E63.17309
G1 X45.368 Y91.213 E63.37525
G1 X44.429 Y89.853 E63.57748
G1 X43.843 Y88.308 E63.77961
G1 X43.636 Y86.598 E63.99031
G1 X43.636 Y36.735 E70.09025
G1 X43.843 Y35.025 E70.30095
G1 X44.429 Y33.480 E70.50308
G1 X45.368 Y32.120 E70.70531
G1 X46.605 Y31.024 E70.90747
G1 X48.069 Y30.256 E71.10968
G1 X49.674 Y29.860 E71.31195
G1 X151.326 Y29.860 E83.74745
G1 X152.931 Y30.256 E83.94973
G1 X154.395 Y31.024 E84.15194
G1 X155.508 Y32.010 E84.33384
G1 X155.590 Y32.084 E84.34734
G1 X156.078 Y31.533 F7800.000
G1 X156.186 Y31.629 F540.000 E84.36500
G1 X157.227 Y33.136 E84.58907
G1 X157.877 Y34.848 E84.81308
G1 X158.100 Y36.691 E85.04016
G1 X158.100 Y86.643 E91.15095
G1 X157.877 Y88.485 E91.37803
G1 X157.227 Y90.197 E91.60204
G1 X156.186 Y91.704 E91.82611
G1 X154.816 Y92.919 E92.05011
G1 X153.194 Y93.770 E92.27418
G1 X151.415 Y94.209 E92.49830
G1 X49.585 Y94.209 E104.95567
G1 X47.806 Y93.770 E105.17979
G1 X46.184 Y92.919 E105.40386
G1 X44.814 Y91.704 E105.62786
G1 X43.773 Y90.197 E105.85193
G1 X43.123 Y88.485 E106.07594
G1 X42.900 Y86.643 E106.30302
G1 X42.900 Y36.691 E112.41381
G1 X43.123 Y34.848 E112.64089
G1 X43.773 Y33.136 E112.86490
G1 X44.814 Y31.629 E113.08897
G1 X46.184 Y30.414 E113.31298
G1 X47.806 Y29.563 E113.53705
G1 X49.585 Y29.125 E113.76117
G1 X151.415 Y29.125 E126.21854
G1 X153.194 Y29.563 E126.44266
G1 X154.816 Y30.414 E126.66672
G1 X155.996 Y31.460 E126.85957
G1 X156.078 Y31.533 E126.87307
G1 X155.931 Y32.254 F7800.000
G1 F1800.000 E125.87307
G92 E0
G1 X155.094 Y39.242 F7800.000
G1 F1800.000 E1.00000
G1 X156.127 Y40.276 F1080.000 E1.17889
G1 X154.741 Y39.930 F7800.000
G1 X156.127 Y41.317 F1080.000 E1.41887
G1 X156.127 Y42.357 E1.54626
G1 X154.138 Y40.368 E1.89057
G1 X153.535 Y40.806 E1.98177
G1 X156.127 Y43.398 E2.43040
G1 X156.128 Y44.438 E2.55771
G1 X152.933 Y41.243 E3.11068
G1 X152.330 Y41.682 E3.20188
G1 X156.128 Y45.479 E3.85918
G1 X156.128 Y46.520 E3.98656
G1 X151.500 Y41.892 E4.78758
G1 X150.459 Y41.892 E4.91496
G1 X156.128 Y47.561 E5.89611
G1 X156.128 Y48.602 E6.02350
G1 X149.418 Y41.892 E7.18481
G1 X148.072 Y41.587 E7.35371
G1 X156.127 Y49.642 E8.74796
G1 X156.127 Y50.683 E8.87535
G1 X136.541 Y31.097 E12.26539
G1 X135.501 Y31.097 E12.39278
G1 X156.127 Y51.724 E15.96295
G1 X156.127 Y52.765 E16.09034
G1 X134.460 Y31.097 E19.84066
G1 X133.419 Y31.097 E19.96805
G1 X156.127 Y53.806 E23.89852
G1 X156.127 Y54.847 E24.02592
G1 X132.378 Y31.097 E28.13654
G1 X131.337 Y31.097 E28.26393
G1 X156.127 Y55.888 E32.55471
G1 X156.127 Y56.928 E32.68210
G1 X130.296 Y31.097 E37.15302
G1 X129.256 Y31.097 E37.28041
G1 X156.127 Y57.969 E41.93149
G1 X156.127 Y59.010 E42.05888
G1 X128.215 Y31.097 E46.89011
G1 X127.174 Y31.097 E47.01750
G1 X156.127 Y60.051 E52.02888
G1 X156.127 Y61.092 E52.15627
G1 X126.133 Y31.098 E57.34779
G1 X125.092 Y31.098 E57.47518
G1 X156.127 Y62.133 E62.84686
G1 X156.127 Y63.173 E62.97417
G1 X124.052 Y31.098 E68.52587
G1 X123.011 Y31.098 E68.65326
G1 X156.127 Y64.214 E74.38512
G1 X156.127 Y65.254 E74.51242
G1 X121.971 Y31.097 E80.42443
G1 X120.930 Y31.097 E80.55182
G1 X156.127 Y66.295 E86.64398
G1 X156.127 Y67.336 E86.77137
G1 X119.889 Y31.097 E93.04367
G1 X118.848 Y31.097 E93.17106
G1 X156.127 Y68.376 E99.62352
G1 X156.127 Y69.417 E99.75091
G1 X117.807 Y31.097 E106.38352
G1 X116.766 Y31.097 E106.51091
G1 X156.127 Y70.458 E113.32367
G1 X156.127 Y71.499 E113.45106
G1 X115.726 Y31.097 E120.44397
G1 X114.685 Y31.097 E120.57136
G1 X156.127 Y72.540 E127.74442
G1 X156.127 Y73.581 E127.87181
G1 X113.644 Y31.097 E135.22502
G1 X112.603 Y31.097 E135.35241
G1 X156.127 Y74.622 E142.88577
G1 X156.127 Y75.662 E143.01316
G1 X111.562 Y31.097 E150.72667
G1 X110.521 Y31.097 E150.85406
G1 X156.127 Y76.703 E158.74772
G1 X156.127 Y77.744 E158.87511
G1 X109.481 Y31.097 E166.94892
G1 X108.440 Y31.097 E167.07631
G1 X156.127 Y78.785 E175.33027
G1 X156.127 Y79.826 E175.45766
G1 X107.399 Y31.097 E183.89177
G1 X106.358 Y31.097 E184.01916
G1 X156.127 Y80.867 E192.63343
G1 X156.127 Y81.908 E192.76082
G1 X105.317 Y31.098 E201.55523
G1 X104.276 Y31.098 E201.68262
G1 X156.127 Y82.948 E210.65719
G1 X156.127 Y83.989 E210.78449
G1 X103.236 Y31.098 E219.93908
G1 X102.195 Y31.098 E220.06647
G1 X152.620 Y81.523 E228.79429
G1 X151.499 Y81.441 E228.93191
G1 X101.155 Y31.097 E237.64564
G1 X100.114 Y31.097 E237.77303
G1 X150.458 Y81.441 E246.48676
G1 X149.417 Y81.441 E246.61415
G1 X99.073 Y31.097 E255.32787
G1 X98.032 Y31.097 E255.45526
G1 X148.621 Y81.686 E264.21145
G1 X148.019 Y82.125 E264.30264
G1 X96.991 Y31.097 E273.13469
G1 X95.951 Y31.097 E273.26208
G1 X147.416 Y82.562 E282.16990
G1 X146.813 Y83.001 E282.26109
G1 X94.910 Y31.097 E291.24477
G1 X93.869 Y31.097 E291.37216
G1 X146.210 Y83.439 E300.43161
G1 X145.886 Y84.155 F7800.000
G1 X92.828 Y31.097 F1080.000 E309.61502
G1 X91.787 Y31.097 E309.74241
G1 X145.630 Y84.940 E319.06179
G1 X145.375 Y85.726 E319.16289
G1 X90.747 Y31.097 E328.61824
G1 X89.706 Y31.097 E328.74563
G1 X145.120 Y86.512 E338.33695
G1 X145.246 Y87.678 E338.48057
G1 X88.665 Y31.097 E348.27382
G1 X87.624 Y31.097 E348.40121
G1 X145.747 Y89.221 E358.46139
G1 X147.722 Y92.236 E358.90259
G1 X86.583 Y31.097 E369.48475
G1 X85.542 Y31.097 E369.61214
G1 X146.681 Y92.236 E380.19430
G1 X145.640 Y92.236 E380.32169
G1 X84.502 Y31.098 E390.90383
G1 X83.461 Y31.098 E391.03121
G1 X144.599 Y92.236 E401.61335
G1 X143.559 Y92.236 E401.74074
G1 X82.420 Y31.098 E412.32287
G1 X81.379 Y31.098 E412.45025
G1 X142.518 Y92.236 E423.03237
G1 X141.478 Y92.236 E423.15968
G1 X80.339 Y31.097 E433.74180
G1 X79.298 Y31.097 E433.86918
G1 X140.437 Y92.236 E444.45129
G1 X139.396 Y92.236 E444.57868
G1 X78.257 Y31.097 E455.16078
G1 X77.217 Y31.097 E455.28817
G1 X138.355 Y92.236 E465.87026
G1 X137.314 Y92.236 E465.99765
G1 X76.176 Y31.097 E476.57975
G1 X75.135 Y31.097 E476.70713
G1 X136.273 Y92.236 E487.28921
G1 X135.232 Y92.236 E487.41660
G1 X74.094 Y31.097 E497.99869
G1 X73.053 Y31.097 E498.12607
G1 X134.192 Y92.236 E508.70814
G1 X133.151 Y92.236 E508.83553
G1 X72.012 Y31.097 E519.41760
G1 X70.972 Y31.097 E519.54498
G1 X132.111 Y92.236 E530.12716
G1 X131.070 Y92.236 E530.25455
G1 X69.931 Y31.097 E540.83673
G1 X68.890 Y31.097 E540.96412
G1 X130.029 Y92.236 E551.54629
G1 X128.988 Y92.236 E551.67367
G1 X67.849 Y31.097 E562.25584
G1 X66.808 Y31.097 E562.38323
G1 X127.947 Y92.236 E572.96538
G1 X126.906 Y92.236 E573.09277
G1 X65.767 Y31.097 E583.67493
G1 X64.727 Y31.098 E583.80231
G1 X125.865 Y92.236 E594.38446
G1 X124.824 Y92.236 E594.51185
G1 X63.686 Y31.098 E605.09399
G1 X62.645 Y31.098 E605.22137
G1 X123.784 Y92.236 E615.80351
G1 X122.743 Y92.236 E615.93090
G1 X61.604 Y31.098 E626.51303
G1 X60.563 Y31.098 E626.64041
G1 X121.702 Y92.236 E637.22253
G1 X120.662 Y92.236 E637.34983
G1 X59.523 Y31.097 E647.93195
G1 X58.482 Y31.097 E648.05933
G1 X119.621 Y92.236 E658.64144
G1 X118.580 Y92.236 E658.76882
G1 X57.441 Y31.097 E669.35095
G1 X56.401 Y31.097 E669.47833
G1 X117.539 Y92.236 E680.06045
G1 X116.499 Y92.236 E680.18783
G1 X55.360 Y31.097 E690.76996
G1 F1800.000 E689.76996
G92 E0
G1 X55.253 Y34.113 F7800.000
G1 F1800.000 E1.00000
G1 X113.376 Y92.236 F1080.000 E11.06016
G1 X112.335 Y92.236 E11.18754
G1 X55.754 Y35.655 E20.98081
G1 X55.880 Y36.822 E21.12447
G1 X111.294 Y92.236 E30.71576
G1 X110.254 Y92.236 E30.84314
G1 X55.625 Y37.607 E40.29847
G1 X55.370 Y38.393 E40.39956
G1 X109.213 Y92.236 E49.71894
G1 X108.172 Y92.236 E49.84631
G1 X55.114 Y39.178 E59.02973
G1 X54.790 Y39.894 F7800.000
G1 X107.131 Y92.236 F1080.000 E68.08924
G1 X106.090 Y92.236 E68.21662
G1 X54.187 Y40.332 E77.20032
G1 X53.584 Y40.770 E77.29150
G1 X105.050 Y92.236 E86.19938
G1 X104.009 Y92.236 E86.32676
G1 X52.981 Y41.208 E95.15883
G1 X52.378 Y41.646 E95.25002
G1 X102.968 Y92.236 E104.00627
G1 X101.927 Y92.236 E104.13365
G1 X51.584 Y41.892 E112.84734
G1 X50.543 Y41.892 E112.97471
G1 X100.886 Y92.236 E121.68840
G1 X99.846 Y92.236 E121.81578
G1 X49.502 Y41.892 E130.52947
G1 X48.380 Y41.811 E130.66716
G1 X98.805 Y92.236 E139.39491
G1 X97.764 Y92.236 E139.52230
G1 X44.873 Y39.345 E148.67696
G1 X44.873 Y40.385 E148.80433
G1 X96.723 Y92.236 E157.77885
G1 X95.683 Y92.236 E157.90623
G1 X44.873 Y41.426 E166.70060
G1 X44.873 Y42.467 E166.82797
G1 X94.642 Y92.236 E175.44220
G1 X93.601 Y92.236 E175.56959
G1 X44.873 Y43.508 E184.00367
G1 X44.873 Y44.549 E184.13104
G1 X92.560 Y92.236 E192.38498
G1 X91.519 Y92.236 E192.51236
G1 X44.873 Y45.589 E200.58616
G1 X44.873 Y46.630 E200.71353
G1 X90.479 Y92.236 E208.60719
G1 X89.438 Y92.236 E208.73457
G1 X44.873 Y47.671 E216.44807
G1 X44.873 Y48.712 E216.57545
G1 X88.397 Y92.236 E224.10881
G1 X87.356 Y92.236 E224.23619
G1 X44.873 Y49.753 E231.58941
G1 X44.873 Y50.793 E231.71678
G1 X86.315 Y92.236 E238.88986
G1 X85.275 Y92.236 E239.01724
G1 X44.873 Y51.834 E246.01017
G1 X44.873 Y52.875 E246.13754
G1 X84.234 Y92.236 E252.95033
G1 X83.193 Y92.236 E253.07771
G1 X44.873 Y53.916 E259.71035
G1 X44.873 Y54.956 E259.83773
G1 X82.152 Y92.236 E266.29022
G1 X81.111 Y92.236 E266.41760
G1 X44.873 Y55.997 E272.68996
G1 X44.873 Y57.038 E272.81733
G1 X80.071 Y92.236 E278.90954
G1 X79.030 Y92.236 E279.03692
G1 X44.873 Y58.079 E284.94899
G1 X44.873 Y59.120 E285.07636
G1 X77.989 Y92.236 E290.80828
G1 X76.948 Y92.236 E290.93566
G1 X44.873 Y60.160 E296.48744
G1 X44.873 Y61.201 E296.61481
G1 X75.907 Y92.236 E301.98644
G1 X74.867 Y92.236 E302.11382
G1 X44.873 Y62.242 E307.30531
G1 X44.873 Y63.283 E307.43268
G1 X73.826 Y92.236 E312.44403
G1 X72.785 Y92.236 E312.57141
G1 X44.873 Y64.324 E317.40261
G1 X44.873 Y65.364 E317.52998
G1 X71.744 Y92.236 E322.18104
G1 X70.704 Y92.236 E322.30842
G1 X44.873 Y66.405 E326.77933
G1 X44.873 Y67.446 E326.90670
G1 X69.663 Y92.236 E331.19747
G1 X68.622 Y92.236 E331.32485
G1 X44.873 Y68.487 E335.43547
G1 X44.873 Y69.527 E335.56285
G1 X67.581 Y92.236 E339.49332
G1 X66.540 Y92.236 E339.62070
G1 X44.873 Y70.568 E343.37104
G1 X44.873 Y71.609 E343.49841
G1 X65.500 Y92.236 E347.06860
G1 X64.459 Y92.236 E347.19597
G1 X44.873 Y72.650 E350.58602
G1 F1800.000 E349.58602
G92 E0
G1 X48.670 Y81.651 F7800.000
G1 F1800.000 E1.00000
G1 X44.873 Y77.854 F1080.000 E1.65731
G1 X44.873 Y78.895 E1.78469
G1 X48.068 Y82.089 E2.33766
G1 X47.465 Y82.527 E2.42886
G1 X44.873 Y79.935 E2.87751
G1 X44.873 Y80.976 E3.00489
G1 X46.862 Y82.965 E3.34920
G1 X46.259 Y83.404 E3.44040
G1 X44.873 Y82.017 E3.68039
G1 X44.873 Y83.058 E3.80777
G1 X45.906 Y84.091 E3.98665
G1 F1800.000 E2.98665
G92 E0
G1 X49.501 Y81.441 F7800.000
G1 F1800.000 E1.00000
G1 X44.873 Y76.813 F1080.000 E1.80102
G1 X44.873 Y75.772 E1.92840
G1 X50.541 Y81.441 E2.90957
G1 X51.582 Y81.441 E3.03695
G1 X44.873 Y74.731 E4.19826
G1 X44.873 Y73.691 E4.32564
G1 X52.928 Y81.746 E5.71995
G1 F1800.000 E4.71995
G92 E0
G1 X55.233 Y84.051 F7800.000
G1 F1800.000 E1.00000
G1 X63.418 Y92.236 F1080.000 E2.41673
G1 X62.377 Y92.236 E2.54410
G1 X55.734 Y85.593 E3.69396
G1 X55.891 Y86.790 E3.84177
G1 X61.336 Y92.236 E4.78435
G1 X60.296 Y92.236 E4.91172
G1 X55.635 Y87.576 E5.71834
G1 X55.380 Y88.361 E5.81943
G1 X59.255 Y92.236 E6.49009
G1 X58.214 Y92.236 E6.61747
G1 X55.125 Y89.147 E7.15218
G1 X54.814 Y89.877 E7.24929
G1 X57.173 Y92.236 E7.65765
G1 X56.133 Y92.236 E7.78502
G1 X54.211 Y90.315 E8.11757
G1 X53.608 Y90.753 E8.20877
G1 X55.092 Y92.236 E8.46550
G1 X54.051 Y92.236 E8.59287
G1 X53.006 Y91.191 E8.77379
G1 X52.542 Y91.768 E8.86440
G1 X53.010 Y92.236 E8.94547
G1 F1800.000 E7.94547
G92 E0
G1 X114.417 Y92.236 F7800.000
G1 F1800.000 E1.00000
G1 X53.278 Y31.097 F1080.000 E11.58213
G1 X54.319 Y31.097 E11.70952
G1 X115.458 Y92.236 E22.29164
G1 F1800.000 E21.29164
G92 E0
G1 X145.767 Y39.282 F7800.000
G1 F1800.000 E1.00000
G1 X137.582 Y31.097 F1080.000 E2.41672
G1 X138.623 Y31.097 E2.54411
G1 X145.266 Y37.740 E3.69394
G1 X145.110 Y36.543 E3.84174
G1 X139.664 Y31.097 E4.78432
G1 X140.705 Y31.097 E4.91171
G1 X145.365 Y35.757 E5.71832
G1 X145.620 Y34.972 E5.81941
G1 X141.746 Y31.097 E6.49007
G1 X142.786 Y31.097 E6.61746
G1 X145.876 Y34.186 E7.15216
G1 X146.186 Y33.457 E7.24916
G1 X143.826 Y31.098 E7.65751
G1 X144.867 Y31.098 E7.78490
G1 X146.789 Y33.019 E8.11744
G1 X147.391 Y32.581 E8.20864
G1 X145.908 Y31.098 E8.46537
G1 X146.949 Y31.098 E8.59276
G1 X147.994 Y32.143 E8.77367
G1 X148.458 Y31.566 E8.86428
G1 X147.990 Y31.097 E8.94533
G1 F1800.000 E7.94533
G92 E0
G1 X49.111 Y92.093 F7800.000
G1 F1800.000 E1.00000
G1 X48.843 Y91.824 F360.000 E1.02844
G1 X49.481 Y91.825 E1.07624
G1 X49.958 Y92.301 E1.12679
G1 X50.118 Y91.825 E1.16451
G1 X50.597 Y92.304 E1.21528
G1 X50.755 Y91.824 E1.25313
G1 X51.235 Y92.304 E1.30398
G1 X51.393 Y91.824 E1.34183
G1 X51.873 Y92.304 E1.39268
G1 X52.299 Y92.093 E1.42834
G1 X52.031 Y91.824 E1.45678
G1 F1800.000 E0.45678
G92 E0
G1 X46.486 Y90.478 F7800.000
G1 F1800.000 E1.00000
G1 X48.813 Y92.019 F360.000 E1.25777
G1 F1800.000 E0.25777
G92 E0
G1 X46.067 Y89.872 F7800.000
G1 F1800.000 E1.00000
G1 X45.799 Y89.604 F360.000 E1.02976
G1 X45.746 Y88.884 E1.08643
G1 X45.143 Y88.280 E1.15339
G1 X45.425 Y87.895 E1.19085
G1 X44.927 Y87.397 E1.24612
G1 X45.104 Y86.907 E1.28703
G1 X44.836 Y86.638 E1.31679
G1 X45.373 Y85.627 F7800.000
G1 X44.905 Y85.159 F360.000 E1.39779
G1 F1800.000 E0.39779
G92 E0
G1 X45.373 Y38.568 F7800.000
G1 F1800.000 E1.00000
G1 X44.905 Y38.100 F360.000 E1.08102
G1 X45.104 Y36.695 F7800.000
G1 X44.835 Y36.427 F360.000 E1.11024
G1 X45.264 Y36.201 E1.14758
G1 X44.906 Y35.843 E1.18660
G1 X45.425 Y35.707 E1.22792
G1 X44.977 Y35.259 E1.27673
G1 X45.147 Y34.774 E1.31630
G1 X45.586 Y35.212 E1.36408
G1 X45.746 Y34.718 E1.40411
G1 X45.327 Y34.299 E1.44976
G1 X45.532 Y33.848 E1.48786
G1 X45.907 Y34.224 E1.52874
G1 X46.068 Y33.729 E1.56877
G1 X45.800 Y33.461 E1.59799
G1 X46.278 Y33.424 F7800.000
G1 X46.010 Y33.156 F360.000 E1.62589
G1 X46.280 Y32.801 E1.65871
G1 X46.641 Y33.161 E1.69620
G1 X47.003 Y32.898 E1.72911
G1 X46.612 Y32.507 E1.76979
G1 X46.943 Y32.213 E1.80236
G1 X47.365 Y32.635 E1.84622
G1 X47.727 Y32.372 E1.87914
G1 X47.288 Y31.933 E1.92476
G1 X47.698 Y31.718 E1.95881
G1 X48.089 Y32.109 E1.99945
G1 X48.451 Y31.846 E2.03236
G1 X48.108 Y31.503 E2.06800
G1 X48.545 Y31.314 E2.10298
G1 X48.813 Y31.582 E2.13088
G1 X49.112 Y31.509 F7800.000
G1 X48.843 Y31.241 F360.000 E2.16182
G1 X49.399 Y31.103 E2.20852
G1 X49.805 Y31.509 E2.25529
G1 X50.019 Y31.030 E2.29810
G1 X50.498 Y31.509 E2.35337
G1 X50.712 Y31.030 E2.39617
G1 X51.192 Y31.509 E2.45144
G1 X51.406 Y31.030 E2.49425
G1 X51.885 Y31.509 E2.54952
G1 X52.099 Y31.030 E2.59232
G1 X52.368 Y31.298 E2.62327
G1 F1800.000 E1.62327
G92 E0
G1 X148.969 Y31.509 F7800.000
G1 F1800.000 E1.00000
G1 X148.701 Y31.240 F360.000 E1.02846
G1 X149.128 Y31.029 E1.06416
G1 X149.607 Y31.509 E1.11497
G1 X149.765 Y31.030 E1.15276
G1 X150.244 Y31.509 E1.20358
G1 X150.402 Y31.030 E1.24143
G1 X150.882 Y31.509 E1.29225
G1 X151.042 Y31.032 E1.33000
G1 X151.519 Y31.509 E1.38059
G1 X151.889 Y31.240 E1.41482
G1 X152.157 Y31.509 E1.44327
G1 X152.456 Y31.582 F7800.000
G1 X154.784 Y33.125 F360.000 E1.70122
G1 F1800.000 E0.70122
G92 E0
G1 X156.165 Y36.695 F7800.000
G1 F1800.000 E1.00000
G1 X155.896 Y36.427 F360.000 E1.02979
G1 X156.073 Y35.936 E1.07073
G1 X155.575 Y35.438 E1.12597
G1 X155.857 Y35.053 E1.16344
G1 X155.254 Y34.449 E1.23044
G1 X155.201 Y33.729 E1.28708
G1 X154.933 Y33.461 E1.31689
G1 F1800.000 E0.31689
G92 E0
G1 X155.974 Y38.549 F7800.000
G1 F1800.000 E1.00000
G1 X155.505 Y38.080 F360.000 E1.08103
G1 F1800.000 E0.08103
G92 E0
G1 X156.095 Y85.627 F7800.000
G1 F1800.000 E1.00000
G1 X155.627 Y85.159 F360.000 E1.08099
G1 F1800.000 E0.08099
G92 E0
G1 X155.201 Y89.873 F7800.000
G1 F1800.000 E1.00000
G1 X154.932 Y89.604 F360.000 E1.02921
G1 X155.093 Y89.110 E1.06924
G1 X155.468 Y89.485 E1.11009
G1 X155.673 Y89.034 E1.14825
G1 X155.254 Y88.615 E1.19387
G1 X155.415 Y88.121 E1.23390
G1 X155.853 Y88.560 E1.28168
G1 X156.023 Y88.074 E1.32126
G1 X155.575 Y87.627 E1.37004
G1 X155.736 Y87.132 E1.41006
G1 X156.094 Y87.490 E1.44906
G1 X156.164 Y86.906 E1.49437
G1 X155.896 Y86.638 E1.52359
G1 F1800.000 E0.52359
G92 E0
G1 X152.455 Y92.019 F7800.000
G1 F1800.000 E1.00000
G1 X152.187 Y91.751 F360.000 E1.02789
G1 X152.549 Y91.488 E1.06079
G1 X152.891 Y91.830 E1.09640
G1 X153.301 Y91.616 E1.13045
G1 X152.911 Y91.225 E1.17106
G1 X153.273 Y90.962 E1.20396
G1 X153.711 Y91.401 E1.24957
G1 X154.057 Y91.120 E1.28232
G1 X153.636 Y90.698 E1.32617
G1 X153.998 Y90.435 E1.35907
G1 X154.389 Y90.826 E1.39975
G1 X154.720 Y90.532 E1.43231
G1 X154.360 Y90.172 E1.46976
G1 X154.722 Y89.909 E1.50266
G1 X154.990 Y90.177 E1.53055
G1 F1800.000 E0.53055
G92 E0
G1 X148.900 Y92.304 F7800.000
G1 F1800.000 E1.00000
G1 X148.632 Y92.036 F360.000 E1.03093
G1 X149.115 Y91.824 E1.07392
G1 X149.594 Y92.304 E1.12923
G1 X149.809 Y91.825 E1.17200
G1 X150.287 Y92.304 E1.22723
G1 X150.501 Y91.825 E1.27000
G1 X150.980 Y92.304 E1.32523
G1 X151.195 Y91.824 E1.36808
G1 X151.601 Y92.230 E1.41483
G1 X151.888 Y91.824 E1.45535
G1 X152.157 Y92.093 E1.48636
G1 F1800.000 E0.48636
G92 E0
G1 Z0.800 F7800.000
G1 X150.850 Y167.488
G1 F1800.000 E1.00000
G1 X148.150 Y167.488 F1800.000 E1.23333
G1 X145.966 Y165.901 E1.46666
G1 X145.131 Y163.333 E1.69996
G1 X145.966 Y160.766 E1.93325
G1 X148.150 Y159.179 E2.16658
G1 X150.850 Y159.179 E2.39991
G1 X153.034 Y160.766 E2.63324
G1 X153.869 Y163.333 E2.86654
G1 X153.034 Y165.901 E3.09984
G1 X150.913 Y167.442 E3.32643
G1 X150.850 Y167.488 E3.33317
G1 X150.681 Y166.968 F7800.000
G1 X148.319 Y166.968 F1800.000 E3.53731
G1 X146.408 Y165.580 E3.74146
G1 X145.678 Y163.333 E3.94558
G1 X146.408 Y161.087 E4.14970
G1 X148.319 Y159.698 E4.35385
G1 X150.681 Y159.698 E4.55799
G1 X152.592 Y161.087 E4.76214
G1 X153.322 Y163.333 E4.96626
G1 X152.592 Y165.580 E5.17038
G1 X150.744 Y166.923 E5.36779
G1 X150.681 Y166.968 E5.37453
G1 X150.512 Y166.449 F7800.000
G1 X148.488 Y166.449 F1800.000 E5.54949
G1 X146.850 Y165.259 E5.72446
G1 X146.224 Y163.333 E5.89940
G1 X146.850 Y161.408 E6.07433
G1 X148.488 Y160.218 E6.24931
G1 X150.512 Y160.218 E6.42426
G1 X152.150 Y161.408 E6.59924
G1 X152.776 Y163.333 E6.77417
G1 X152.150 Y165.259 E6.94911
G1 X150.575 Y166.403 E7.11735
G1 X150.512 Y166.449 E7.12408
G1 X150.352 Y166.943 F7800.000
G1 F1800.000 E6.12408
G92 E0
G1 X150.850 Y117.488 F7800.000
G1 F1800.000 E1.00000
G1 X148.150 Y117.488 F1800.000 E1.23333
G1 X145.966 Y115.901 E1.46666
G1 X145.131 Y113.333 E1.69996
G1 X145.966 Y110.766 E1.93325
G1 X148.150 Y109.179 E2.16658
G1 X150.850 Y109.179 E2.39991
G1 X153.034 Y110.766 E2.63324
G1 X153.869 Y113.333 E2.86654
G1 X153.034 Y115.901 E3.09984
G1 X150.913 Y117.442 E3.32643
G1 X150.850 Y117.488 E3.33317
G1 X150.681 Y116.968 F7800.000
G1 X148.319 Y116.968 F1800.000 E3.53731
G1 X146.408 Y115.580 E3.74146
G1 X145.678 Y113.333 E3.94558
G1 X146.408 Y111.087 E4.14970
G1 X148.319 Y109.698 E4.35385
G1 X150.681 Y109.698 E4.55799
G1 X152.592 Y111.087 E4.76214
G1 X153.322 Y113.333 E4.96626
G1 X152.592 Y115.580 E5.17038
G1 X150.744 Y116.923 E5.36779
G1 X150.681 Y116.968 E5.37453
G1 X150.512 Y116.449 F7800.000
G1 X148.488 Y116.449 F1800.000 E5.54949
G1 X146.850 Y115.259 E5.72446
G1 X146.224 Y113.333 E5.89940
G1 X146.850 Y111.408 E6.07433
G1 X148.488 Y110.218 E6.24931
G1 X150.512 Y110.218 E6.42426
G1 X152.150 Y111.408 E6.59924
G1 X152.776 Y113.333 E6.77417
G1 X152.150 Y115.259 E6.94911
G1 X150.575 Y116.403 E7.11735
G1 X150.512 Y116.449 E7.12408
G1 X150.352 Y116.943 F7800.000
G1 F1800.000 E6.12408
G92 E0
G1 X53.869 Y113.333 F7800.000
G1 F1800.000 E1.00000
G1 X53.034 Y115.901 F1800.000 E1.23330
G1 X50.850 Y117.488 E1.46663
G1 X48.150 Y117.488 E1.69996
G1 X45.966 Y115.901 E1.93329
G1 X45.131 Y113.333 E2.16658
G1 X45.966 Y110.766 E2.39988
G1 X48.150 Y109.179 E2.63321
G1 X50.850 Y109.179 E2.86654
G1 X53.034 Y110.766 E3.09987
G1 X53.845 Y113.259 E3.32643
G1 X53.869 Y113.333 E3.33317
G1 X53.322 Y113.333 F7800.000
G1 X52.592 Y115.580 F1800.000 E3.53729
G1 X50.681 Y116.968 E3.74144
G1 X48.319 Y116.968 E3.94558
G1 X46.408 Y115.580 E4.14973
G1 X45.678 Y113.333 E4.35385
G1 X46.408 Y111.087 E4.55797
G1 X48.319 Y109.698 E4.76212
G1 X50.681 Y109.698 E4.96626
G1 X52.592 Y111.087 E5.17041
G1 X53.298 Y113.259 E5.36779
G1 X53.322 Y113.333 E5.37453
G1 X52.776 Y113.333 F7800.000
G1 X52.150 Y115.259 F1800.000 E5.54947
G1 X50.512 Y116.449 E5.72444
G1 X48.488 Y116.449 E5.89940
G1 X46.850 Y115.259 E6.07437
G1 X46.224 Y113.333 E6.24931
G1 X46.850 Y111.408 E6.42424
G1 X48.488 Y110.218 E6.59922
G1 X50.512 Y110.218 E6.77417
G1 X52.150 Y111.408 E6.94915
G1 X52.752 Y113.259 E7.11735
G1 X52.776 Y113.333 E7.12408
G1 X53.196 Y113.639 F7800.000
G1 F1800.000 E6.12408
G92 E0
G1 X50.850 Y159.179 F7800.000
G1 F1800.000 E1.00000
G1 X53.034 Y160.766 F1800.000 E1.23333
G1 X53.869 Y163.333 E1.46663
G1 X53.034 Y165.901 E1.69993
G1 X50.850 Y167.488 E1.93326
G1 X48.150 Y167.488 E2.16658
G1 X45.966 Y165.901 E2.39991
G1 X45.131 Y163.333 E2.63321
G1 X45.966 Y160.766 E2.86651
G1 X48.150 Y159.179 E3.09984
G1 X50.772 Y159.179 E3.32643
G1 X50.850 Y159.179 E3.33317
G1 X50.681 Y159.698 F7800.000
G1 X52.592 Y161.087 F1800.000 E3.53732
G1 X53.322 Y163.333 E3.74144
G1 X52.592 Y165.580 E3.94556
G1 X50.681 Y166.968 E4.14971
G1 X48.319 Y166.968 E4.35385
G1 X46.408 Y165.580 E4.55800
G1 X45.678 Y163.333 E4.76212
G1 X46.408 Y161.087 E4.96624
G1 X48.319 Y159.698 E5.17039
G1 X50.603 Y159.698 E5.36779
G1 X50.681 Y159.698 E5.37453
G1 X50.512 Y160.218 F7800.000
G1 X52.150 Y161.408 F1800.000 E5.54950
G1 X52.776 Y163.333 E5.72444
G1 X52.150 Y165.259 E5.89938
G1 X50.512 Y166.449 E6.07435
G1 X48.488 Y166.449 E6.24931
G1 X46.850 Y165.259 E6.42428
G1 X46.224 Y163.333 E6.59922
G1 X46.850 Y161.408 E6.77415
G1 X48.488 Y160.218 E6.94913
G1 X50.434 Y160.218 E7.11735
G1 X50.512 Y160.218 E7.12408
G1 X50.933 Y159.912 F7800.000
G1 F1800.000 E6.12408
G92 E0
G1 X151.872 Y169.587 F7800.000
G1 F1800.000 E1.00000
G1 X150.306 Y169.974 F1800.000 E1.13940
G1 X48.694 Y169.974 E9.92024
G1 X47.128 Y169.587 E10.05964
G1 X45.700 Y168.838 E10.19899
G1 X44.494 Y167.769 E10.33830
G1 X43.577 Y166.442 E10.47767
G1 X43.005 Y164.935 E10.61697
G1 X42.802 Y163.255 E10.76319
G1 X42.802 Y113.412 E15.07040
G1 X43.005 Y111.732 E15.21662
G1 X43.577 Y110.225 E15.35592
G1 X44.494 Y108.898 E15.49529
G1 X45.700 Y107.829 E15.63460
G1 X47.128 Y107.079 E15.77395
G1 X48.694 Y106.693 E15.91335
G1 X150.306 Y106.693 E24.69419
G1 X151.872 Y107.079 E24.83359
G1 X153.300 Y107.829 E24.97294
G1 X154.506 Y108.898 E25.11226
G1 X155.423 Y110.225 E25.25162
G1 X155.995 Y111.732 E25.39092
G1 X156.198 Y113.412 E25.53715
G1 X156.198 Y163.255 E29.84435
G1 X155.995 Y164.935 E29.99058
G1 X155.423 Y166.442 E30.12987
G1 X154.506 Y167.769 E30.26924
G1 X153.300 Y168.838 E30.40855
G1 X151.941 Y169.551 E30.54117
G1 X151.872 Y169.587 E30.54791
G1 X152.058 Y170.077 F7800.000
G1 X150.369 Y170.493 F1800.000 E30.69821
G1 X48.631 Y170.493 E39.48995
G1 X46.942 Y170.077 E39.64026
G1 X45.403 Y169.269 E39.79051
G1 X44.102 Y168.116 E39.94073
G1 X43.114 Y166.685 E40.09100
G1 X42.497 Y165.060 E40.24121
G1 X42.282 Y163.286 E40.39561
G1 X42.282 Y113.381 E44.70823
G1 X42.497 Y111.607 E44.86263
G1 X43.114 Y109.982 E45.01284
G1 X44.102 Y108.551 E45.16310
G1 X45.403 Y107.398 E45.31332
G1 X46.942 Y106.590 E45.46358
G1 X48.631 Y106.173 E45.61388
G1 X150.369 Y106.173 E54.40563
G1 X152.058 Y106.590 E54.55593
G1 X153.597 Y107.398 E54.70619
G1 X154.898 Y108.551 E54.85641
G1 X155.886 Y109.982 E55.00667
G1 X156.503 Y111.607 E55.15688
G1 X156.718 Y113.381 E55.31128
G1 X156.718 Y163.286 E59.62391
G1 X156.503 Y165.060 E59.77830
G1 X155.886 Y166.685 E59.92851
G1 X154.898 Y168.116 E60.07878
G1 X153.597 Y169.269 E60.22900
G1 X152.127 Y170.040 E60.37252
G1 X152.058 Y170.077 E60.37926
G1 X152.243 Y170.566 F7800.000
G1 X150.432 Y171.013 F1800.000 E60.54046
G1 X48.568 Y171.013 E69.34312
G1 X46.757 Y170.566 E69.50432
G1 X45.105 Y169.700 E69.66549
G1 X43.710 Y168.463 E69.82661
G1 X42.650 Y166.928 E69.98777
G1 X41.989 Y165.185 E70.14890
G1 X41.763 Y163.317 E70.31147
G1 X41.763 Y113.349 E74.62951
G1 X41.989 Y111.482 E74.79208
G1 X42.650 Y109.738 E74.95321
G1 X43.710 Y108.204 E75.11437
G1 X45.105 Y106.967 E75.27549
G1 X46.757 Y106.101 E75.43666
G1 X48.568 Y105.654 E75.59786
G1 X150.432 Y105.654 E84.40052
G1 X152.243 Y106.101 E84.56172
G1 X153.895 Y106.967 E84.72288
G1 X155.290 Y108.204 E84.88401
G1 X156.350 Y109.738 E85.04517
G1 X157.011 Y111.482 E85.20630
G1 X157.237 Y113.349 E85.36886
G1 X157.237 Y163.317 E89.68691
G1 X157.011 Y165.185 E89.84948
G1 X156.350 Y166.928 E90.01060
G1 X155.290 Y168.463 E90.17177
G1 X153.895 Y169.700 E90.33289
G1 X152.312 Y170.530 E90.48732
G1 X152.243 Y170.566 E90.49405
G1 X151.854 Y170.222 F7800.000
G1 F1800.000 E89.49405
G92 E0
G1 X152.273 Y167.051 F7800.000
G1 F1800.000 E1.00000
G1 X149.705 Y169.619 F3600.000 E1.31495
G1 X148.967 Y169.619 E1.37890
G1 X150.744 Y167.842 E1.59685
G1 X150.007 Y167.842 E1.66080
G1 X148.230 Y169.619 E1.87875
G1 X147.492 Y169.619 E1.94271
G1 X149.269 Y167.842 E2.16066
G1 X148.532 Y167.842 E2.22462
G1 X146.755 Y169.619 E2.44256
G1 X146.017 Y169.619 E2.50652
G1 X147.942 Y167.694 E2.74264
G1 X147.515 Y167.384 E2.78842
G1 X145.280 Y169.619 E3.06261
G1 X144.542 Y169.619 E3.12657
G1 X147.088 Y167.073 E3.43883
G1 X146.661 Y166.763 E3.48461
G1 X143.805 Y169.619 E3.83493
G1 X143.067 Y169.619 E3.89889
G1 X146.234 Y166.453 E4.28727
G1 X145.807 Y166.142 E4.33305
G1 X142.330 Y169.619 E4.75950
G1 X141.592 Y169.619 E4.82345
G1 X145.558 Y165.654 E5.30983
G1 X145.377 Y165.097 E5.36058
G1 X140.855 Y169.619 E5.91522
G1 X140.117 Y169.619 E5.97917
G1 X145.196 Y164.540 E6.60206
G1 X145.015 Y163.984 E6.65281
G1 X139.380 Y169.619 E7.34397
G1 X138.643 Y169.619 E7.40792
G1 X144.835 Y163.427 E8.16733
G1 X144.940 Y162.584 E8.24099
G1 X137.905 Y169.619 E9.10377
G1 X137.168 Y169.619 E9.16772
G1 X145.295 Y161.492 E10.16450
G1 X145.650 Y160.399 E10.26412
G1 X136.430 Y169.619 E11.39490
G1 X135.693 Y169.619 E11.45885
G1 X155.844 Y149.468 E13.93027
G1 X155.844 Y150.205 E13.99423
G1 X145.655 Y160.395 E15.24389
G1 F1800.000 E14.24389
G92 E0
G1 X147.963 Y158.824 F7800.000
G1 F1800.000 E1.00000
G1 X155.844 Y150.943 F3600.000 E1.96661
G1 X155.844 Y151.680 E2.03056
G1 X148.700 Y158.824 E2.90672
G1 X149.437 Y158.824 E2.97068
G1 X155.844 Y152.418 E3.75640
G1 X155.844 Y153.155 E3.82036
G1 X150.175 Y158.824 E4.51562
G1 X150.888 Y158.849 E4.57746
G1 X155.844 Y153.893 E5.18533
G1 X155.844 Y154.630 E5.24929
G1 X151.315 Y159.160 E5.80478
G1 X151.742 Y159.470 E5.85057
G1 X155.844 Y155.368 E6.35367
G1 X155.844 Y156.105 E6.41763
G1 X152.169 Y159.780 E6.86835
G1 X152.596 Y160.091 E6.91413
G1 X155.844 Y156.843 E7.31247
G1 X155.844 Y157.580 E7.37643
G1 X153.023 Y160.401 E7.72239
G1 X153.370 Y160.792 F7800.000
G1 X155.844 Y158.318 F3600.000 E8.02583
G1 X155.844 Y159.055 E8.08979
G1 X153.551 Y161.348 E8.37103
G1 X153.732 Y161.905 E8.42178
G1 X155.844 Y159.793 E8.68085
G1 X155.844 Y160.530 E8.74481
G1 X153.913 Y162.461 E8.98168
G1 X154.093 Y163.018 E9.03244
G1 X155.844 Y161.268 E9.24713
G1 X155.844 Y162.005 E9.31108
G1 X154.201 Y163.648 E9.51255
G1 X153.846 Y164.740 E9.61219
G1 X155.844 Y162.742 E9.85721
G1 X155.786 Y163.538 E9.92640
G1 X153.491 Y165.833 E10.20785
G1 X154.280 Y167.256 F7800.000
G1 X153.948 Y167.588 F3600.000 E10.24860
G1 F1800.000 E9.24860
G92 E0
G1 X155.344 Y165.454 F7800.000
G1 F1800.000 E1.00000
G1 X151.552 Y169.247 F3600.000 E1.46516
G1 X150.561 Y169.500 E1.55378
G1 X155.684 Y164.377 E2.18205
G1 F1800.000 E1.18205
G92 E0
G1 X155.844 Y148.730 F7800.000
G1 F1800.000 E1.00000
G1 X134.955 Y169.619 F3600.000 E3.56187
G1 X134.218 Y169.619 E3.62582
G1 X155.844 Y147.993 E6.27814
G1 X155.844 Y147.256 E6.34210
G1 X133.480 Y169.619 E9.08486
G1 X132.743 Y169.619 E9.14881
G1 X155.844 Y146.518 E11.98202
G1 X155.844 Y145.781 E12.04594
G1 X132.005 Y169.619 E14.96955
G1 X131.268 Y169.619 E15.03351
G1 X155.844 Y145.043 E18.04761
G1 X155.844 Y144.306 E18.11154
G1 X130.530 Y169.619 E21.21604
G1 X129.793 Y169.619 E21.28000
G1 X155.844 Y143.568 E24.47500
G1 X155.844 Y142.831 E24.53892
G1 X129.055 Y169.619 E27.82432
G1 X128.318 Y169.619 E27.88828
G1 X155.844 Y142.093 E31.26418
G1 X155.844 Y141.356 E31.32811
G1 X127.580 Y169.619 E34.79440
G1 X126.843 Y169.619 E34.85836
G1 X155.844 Y140.618 E38.41515
G1 X155.844 Y139.881 E38.47907
G1 X126.105 Y169.619 E42.12627
G1 X125.368 Y169.619 E42.19022
G1 X155.844 Y139.143 E45.92790
G1 X155.844 Y138.406 E45.99183
G1 X124.630 Y169.619 E49.81992
G1 X123.893 Y169.619 E49.88387
G1 X155.844 Y137.668 E53.80245
G1 X155.844 Y136.931 E53.86638
G1 X123.156 Y169.619 E57.87537
G1 X122.418 Y169.619 E57.93932
G1 X155.844 Y136.193 E62.03879
G1 X155.844 Y135.456 E62.10272
G1 X121.681 Y169.619 E66.29260
G1 X120.943 Y169.619 E66.35655
G1 X155.844 Y134.718 E70.63693
G1 X155.844 Y133.981 E70.70085
G1 X120.206 Y169.619 E75.07163
G1 X119.468 Y169.619 E75.13559
G1 X155.844 Y133.244 E79.59677
G1 X155.844 Y132.506 E79.66075
G1 X118.731 Y169.619 E84.21243
G1 X117.993 Y169.619 E84.27638
G1 X155.844 Y131.769 E88.91846
G1 X155.844 Y131.031 E88.98245
G1 X117.256 Y169.619 E93.71501
G1 X116.518 Y169.619 E93.77897
G1 X155.844 Y130.294 E98.60194
G1 X155.844 Y129.556 E98.66592
G1 X115.781 Y169.619 E103.57939
G1 X115.043 Y169.619 E103.64334
G1 X155.844 Y128.819 E108.64722
G1 X155.844 Y128.081 E108.71121
G1 X114.306 Y169.619 E113.80556
G1 X113.568 Y169.619 E113.86952
G1 X155.844 Y127.344 E119.05428
G1 X155.844 Y126.606 E119.11827
G1 X112.831 Y169.619 E124.39352
G1 X112.093 Y169.619 E124.45747
G1 X155.844 Y125.869 E129.82313
G1 X155.844 Y125.131 E129.88712
G1 X111.356 Y169.619 E135.34327
G1 X110.619 Y169.619 E135.40722
G1 X155.844 Y124.394 E140.95377
G1 X155.844 Y123.656 E141.01776
G1 X109.881 Y169.619 E146.65481
G1 X109.144 Y169.619 E146.71876
G1 X155.844 Y122.919 E152.44621
G1 X155.844 Y122.181 E152.51020
G1 X108.406 Y169.619 E158.32814
G1 X107.669 Y169.619 E158.39209
G1 X155.844 Y121.444 E164.30044
G1 X155.844 Y120.706 E164.36443
G1 X106.931 Y169.619 E170.36327
G1 X106.194 Y169.619 E170.42722
G1 X155.844 Y119.969 E176.51646
G1 X155.844 Y119.232 E176.58039
G1 X105.456 Y169.619 E182.76004
G1 X104.719 Y169.619 E182.82399
G1 X155.844 Y118.494 E189.09413
G1 X155.844 Y117.757 E189.15805
G1 X103.981 Y169.619 E195.51859
G1 X103.244 Y169.619 E195.58255
G1 X155.844 Y117.019 E202.03358
G1 X155.844 Y116.282 E202.09750
G1 X102.506 Y169.619 E208.63894
G1 X101.769 Y169.619 E208.70290
G1 X155.844 Y115.544 E215.33483
G1 X155.844 Y114.807 E215.39876
G1 X101.031 Y169.619 E222.12109
G1 X100.294 Y169.619 E222.18505
G1 X155.844 Y114.069 E228.99787
G1 X155.844 Y113.332 E229.06179
G1 X153.562 Y115.614 E229.34161
G1 X153.918 Y114.521 E229.44127
G1 X155.770 Y112.668 E229.66845
G1 X155.690 Y112.010 E229.72592
G1 X154.238 Y113.462 E229.90402
G1 X154.057 Y112.906 E229.95474
G1 X155.547 Y111.416 E230.13752
G1 X155.345 Y110.881 E230.18713
G1 X153.876 Y112.350 E230.36722
G1 X153.696 Y111.793 E230.41799
G1 X155.141 Y110.347 E230.59530
G1 X154.848 Y109.903 E230.64147
G1 X153.514 Y111.237 E230.80508
G1 X153.334 Y110.680 E230.85585
G1 X154.547 Y109.467 E231.00463
G1 X154.236 Y109.040 E231.05041
G1 X152.937 Y110.339 E231.20969
G1 X152.510 Y110.029 E231.25548
G1 X153.845 Y108.694 E231.41919
G1 X153.454 Y108.347 E231.46449
G1 X152.083 Y109.718 E231.63261
G1 X151.656 Y109.408 E231.67840
G1 X153.038 Y108.026 E231.84791
G1 X152.554 Y107.772 E231.89528
G1 X151.229 Y109.097 E232.05776
G1 X150.764 Y108.824 F7800.000
G1 X152.070 Y107.518 F3600.000 E232.21800
G1 X151.528 Y107.323 E232.26796
G1 X150.027 Y108.824 E232.45204
G1 X149.289 Y108.824 E232.51606
G1 X150.936 Y107.178 E232.71801
G1 X150.329 Y107.048 E232.77182
G1 X148.552 Y108.824 E232.98972
G1 X147.810 Y108.828 E233.05405
G1 X149.591 Y107.047 E233.27247
G1 X148.854 Y107.048 E233.33643
G1 X86.282 Y169.619 E241.01039
G1 X87.019 Y169.619 E241.07432
G1 X145.366 Y111.272 E248.23017
G1 X145.011 Y112.365 E248.32984
G1 X87.757 Y169.619 E255.35167
G1 X88.494 Y169.619 E255.41559
G1 X144.798 Y113.315 E262.32082
G1 X144.979 Y113.872 E262.37163
G1 X89.232 Y169.620 E269.20857
G1 X89.969 Y169.619 E269.27250
G1 X145.160 Y114.428 E276.04123
G1 X145.341 Y114.985 E276.09204
G1 X90.707 Y169.620 E282.79248
G1 X91.444 Y169.619 E282.85642
G1 X145.522 Y115.541 E289.48866
G1 X145.721 Y116.080 E289.53844
G1 X92.182 Y169.619 E296.10465
G1 X92.919 Y169.619 E296.16860
G1 X146.149 Y116.390 E302.69678
G1 X146.575 Y116.701 E302.74256
G1 X93.657 Y169.619 E309.23264
G1 X94.394 Y169.619 E309.29660
G1 X147.003 Y117.011 E315.74864
G1 X147.429 Y117.321 E315.79441
G1 X95.132 Y169.619 E322.20835
G1 X95.869 Y169.619 E322.27230
G1 X147.857 Y117.632 E328.64821
G1 X148.383 Y117.843 F7800.000
G1 X96.606 Y169.619 F3600.000 E334.99824
G1 X97.344 Y169.619 E335.06219
G1 X149.121 Y117.842 E341.41227
G1 X149.858 Y117.843 E341.47619
G1 X98.081 Y169.619 E347.82621
G1 X98.819 Y169.619 E347.89017
G1 X150.596 Y117.842 E354.24025
G1 X151.731 Y117.445 F7800.000
G1 X99.556 Y169.619 F3600.000 E360.63902
G1 F1800.000 E359.63902
G92 E0
G1 X85.544 Y169.619 F7800.000
G1 F1800.000 E1.00000
G1 X148.116 Y107.047 F3600.000 E8.67401
G1 X147.379 Y107.048 E8.73797
G1 X84.807 Y169.619 E16.41192
G1 X84.070 Y169.620 E16.47585
G1 X146.642 Y107.048 E24.14985
G1 X145.904 Y107.048 E24.21387
G1 X83.332 Y169.619 E31.88783
G1 X82.595 Y169.620 E31.95175
G1 X145.167 Y107.048 E39.62574
G1 X144.429 Y107.048 E39.68976
G1 X81.857 Y169.619 E47.36371
G1 X81.120 Y169.620 E47.42763
G1 X143.692 Y107.048 E55.10163
G1 X142.954 Y107.047 E55.16558
G1 X80.382 Y169.619 E62.83962
G1 X79.645 Y169.620 E62.90354
G1 X142.217 Y107.048 E70.57752
G1 X141.479 Y107.047 E70.64148
G1 X78.907 Y169.619 E78.31551
G1 X78.170 Y169.620 E78.37943
G1 X140.742 Y107.048 E86.05342
G1 X140.004 Y107.047 E86.11737
G1 X77.432 Y169.619 E93.79139
G1 X76.695 Y169.620 E93.85532
G1 X139.267 Y107.048 E101.52929
G1 X138.529 Y107.047 E101.59325
G1 X75.957 Y169.619 E109.26727
G1 X75.220 Y169.620 E109.33120
G1 X137.792 Y107.048 E117.00517
G1 X137.054 Y107.047 E117.06913
G1 X74.482 Y169.619 E124.74314
G1 X73.745 Y169.619 E124.80706
G1 X136.317 Y107.048 E132.48103
G1 X135.579 Y107.047 E132.54499
G1 X73.007 Y169.619 E140.21900
G1 X72.270 Y169.619 E140.28292
G1 X134.842 Y107.048 E147.95689
G1 X134.105 Y107.048 E148.02079
G1 X71.533 Y169.620 E155.69479
G1 X70.795 Y169.619 E155.75878
G1 X133.367 Y107.048 E163.43273
G1 X132.630 Y107.048 E163.49663
G1 X70.058 Y169.620 E171.17063
G1 X69.320 Y169.619 E171.23461
G1 X131.892 Y107.048 E178.90856
G1 X131.155 Y107.048 E178.97246
G1 X68.583 Y169.620 E186.64645
G1 X67.845 Y169.619 E186.71044
G1 X130.417 Y107.048 E194.38438
G1 X129.680 Y107.048 E194.44828
G1 X67.108 Y169.620 E202.12227
G1 X66.370 Y169.619 E202.18625
G1 X128.942 Y107.047 E209.86028
G1 X128.205 Y107.048 E209.92424
G1 X65.633 Y169.620 E217.59822
G1 X64.895 Y169.619 E217.66221
G1 X127.467 Y107.047 E225.33624
G1 X126.730 Y107.048 E225.40019
G1 X64.158 Y169.620 E233.07418
G1 X63.420 Y169.619 E233.13816
G1 X125.992 Y107.047 E240.81218
G1 X125.255 Y107.048 E240.87614
G1 X62.683 Y169.620 E248.55011
G1 X61.945 Y169.619 E248.61410
G1 X124.517 Y107.047 E256.28812
G1 X123.780 Y107.048 E256.35207
G1 X61.208 Y169.619 E264.02604
G1 X60.470 Y169.619 E264.09003
G1 X123.042 Y107.047 E271.76404
G1 X122.305 Y107.048 E271.82799
G1 X59.733 Y169.619 E279.50196
G1 X58.995 Y169.619 E279.56595
G1 X121.567 Y107.047 E287.23996
G1 X120.830 Y107.048 E287.30392
G1 X58.258 Y169.619 E294.97787
G1 X57.521 Y169.620 E295.04180
G1 X120.093 Y107.048 E302.71580
G1 X119.355 Y107.048 E302.77982
G1 X56.783 Y169.619 E310.45378
G1 X56.046 Y169.620 E310.51770
G1 X118.618 Y107.048 E318.19169
G1 X117.880 Y107.048 E318.25571
G1 X55.308 Y169.619 E325.92966
G1 X54.571 Y169.620 E325.99358
G1 X117.143 Y107.048 E333.66757
G1 X116.405 Y107.047 E333.73156
G1 X53.833 Y169.619 E341.40555
G1 X53.096 Y169.620 E341.46948
G1 X115.668 Y107.048 E349.14346
G1 X114.930 Y107.047 E349.20744
G1 X52.358 Y169.619 E356.88143
G1 X51.621 Y169.620 E356.94536
G1 X114.193 Y107.047 E364.61935
G1 X113.455 Y107.047 E364.68334
G1 X50.883 Y169.619 E372.35733
G1 X50.146 Y169.620 E372.42125
G1 X112.718 Y107.047 E380.09524
G1 X111.980 Y107.047 E380.15922
G1 X53.633 Y165.394 E387.31498
G1 X53.989 Y164.301 E387.41460
G1 X111.243 Y107.047 E394.43636
G1 X110.505 Y107.047 E394.50035
G1 X54.201 Y163.351 E401.40555
G1 X54.021 Y162.794 E401.45627
G1 X109.768 Y107.047 E408.29323
G1 X109.030 Y107.047 E408.35722
G1 X53.840 Y162.237 E415.12591
G1 X53.659 Y161.681 E415.17662
G1 X108.293 Y107.047 E421.87705
G1 X107.556 Y107.048 E421.94098
G1 X53.478 Y161.125 E428.57315
G1 X53.279 Y160.587 E428.62295
G1 X106.818 Y107.047 E435.18914
G1 X106.081 Y107.048 E435.25307
G1 X52.852 Y160.277 E441.78120
G1 X52.424 Y159.966 E441.82703
G1 X105.343 Y107.047 E448.31709
G1 X104.606 Y107.048 E448.38102
G1 X51.998 Y159.656 E454.83302
G1 X51.570 Y159.345 E454.87885
G1 X103.868 Y107.047 E461.29279
G1 X103.131 Y107.048 E461.35672
G1 X51.143 Y159.035 E467.73259
G1 X50.616 Y158.824 F7800.000
G1 X102.393 Y107.047 F3600.000 E474.08265
G1 X101.656 Y107.047 E474.14657
G1 X49.879 Y158.825 E480.49664
G1 X49.141 Y158.824 E480.56063
G1 X100.918 Y107.047 E486.91069
G1 X100.181 Y107.047 E486.97461
G1 X48.404 Y158.825 E493.32468
G1 X47.268 Y159.222 F7800.000
G1 X99.443 Y107.047 F3600.000 E499.72353
G1 X98.706 Y107.047 E499.78745
G1 X43.156 Y162.597 E506.60022
G1 X43.156 Y163.334 E506.66414
G1 X45.438 Y161.053 E506.94399
G1 X45.083 Y162.146 E507.04364
G1 X43.230 Y163.998 E507.27088
G1 X43.309 Y164.656 E507.32831
G1 X44.762 Y163.203 E507.50644
G1 X44.943 Y163.760 E507.55723
G1 X43.453 Y165.251 E507.73998
G1 X43.655 Y165.785 E507.78954
G1 X45.124 Y164.317 E507.96960
G1 X45.305 Y164.874 E508.02039
G1 X43.859 Y166.320 E508.19777
G1 X44.151 Y166.764 E508.24389
G1 X45.485 Y165.430 E508.40750
G1 X45.667 Y165.987 E508.45829
G1 X44.453 Y167.200 E508.60714
G1 X44.764 Y167.626 E508.65286
G1 X46.062 Y166.328 E508.81210
G1 X46.490 Y166.639 E508.85793
G1 X45.155 Y167.973 E509.02161
G1 X45.546 Y168.319 E509.06687
G1 X46.917 Y166.949 E509.23498
G1 X47.344 Y167.259 E509.28081
G1 X45.962 Y168.641 E509.45029
G1 X46.446 Y168.895 E509.49762
G1 X47.771 Y167.569 E509.66017
G1 X48.235 Y167.842 F7800.000
G1 X46.929 Y169.148 F3600.000 E509.82036
G1 X47.472 Y169.343 E509.87040
G1 X48.973 Y167.842 E510.05447
G1 X49.710 Y167.842 E510.11840
G1 X48.063 Y169.489 E510.32037
G1 X48.671 Y169.619 E510.37426
G1 X50.448 Y167.842 E510.59221
G1 X51.188 Y167.839 E510.65639
G1 X49.408 Y169.619 E510.87471
G1 F1800.000 E509.87471
G92 E0
G1 X43.156 Y161.859 F7800.000
G1 F1800.000 E1.00000
G1 X97.968 Y107.047 F3600.000 E7.72232
G1 X97.231 Y107.047 E7.78625
G1 X43.156 Y161.122 E14.41812
G1 X43.156 Y160.384 E14.48211
G1 X96.493 Y107.047 E21.02354
G1 X95.756 Y107.047 E21.08746
G1 X43.156 Y159.647 E27.53845
G1 X43.156 Y158.909 E27.60244
G1 X95.018 Y107.047 E33.96298
G1 X94.281 Y107.047 E34.02691
G1 X43.156 Y158.172 E40.29699
G1 X43.156 Y157.435 E40.36092
G1 X93.544 Y107.048 E46.54057
G1 X92.806 Y107.047 E46.60456
G1 X43.156 Y156.697 E52.69376
G1 X43.156 Y155.960 E52.75769
G1 X92.069 Y107.048 E58.75644
G1 X91.331 Y107.047 E58.82043
G1 X43.156 Y155.222 E64.72874
G1 X43.156 Y154.485 E64.79266
G1 X90.594 Y107.048 E70.61053
G1 X89.856 Y107.047 E70.67452
G1 X43.156 Y153.747 E76.40194
G1 X43.156 Y153.010 E76.46587
G1 X89.119 Y107.048 E82.10284
G1 X88.381 Y107.047 E82.16682
G1 X43.156 Y152.272 E87.71335
G1 X43.156 Y151.535 E87.77727
G1 X87.644 Y107.047 E93.23336
G1 X86.906 Y107.047 E93.29735
G1 X43.156 Y150.797 E98.66299
G1 X43.156 Y150.060 E98.72692
G1 X86.169 Y107.047 E104.00210
G1 X85.431 Y107.047 E104.06609
G1 X43.156 Y149.322 E109.25083
G1 X43.156 Y148.585 E109.31475
G1 X84.694 Y107.047 E114.40906
G1 X83.956 Y107.047 E114.47305
G1 X43.156 Y147.847 E119.47690
G1 X43.156 Y147.110 E119.54083
G1 X83.219 Y107.047 E124.45424
G1 X82.481 Y107.047 E124.51823
G1 X43.156 Y146.372 E129.34120
G1 X43.156 Y145.635 E129.40513
G1 X81.744 Y107.047 E134.13765
G1 X81.007 Y107.048 E134.20158
G1 X43.156 Y144.898 E138.84365
G1 X43.156 Y144.160 E138.90763
G1 X80.269 Y107.047 E143.45926
G1 X79.532 Y107.048 E143.52319
G1 X43.156 Y143.423 E147.98438
G1 X43.156 Y142.685 E148.04837
G1 X78.794 Y107.047 E152.41911
G1 X78.057 Y107.048 E152.48303
G1 X43.156 Y141.948 E156.76332
G1 X43.156 Y141.210 E156.82731
G1 X77.319 Y107.047 E161.01715
G1 X76.582 Y107.048 E161.08108
G1 X43.156 Y140.473 E165.18049
G1 X43.156 Y139.735 E165.24447
G1 X75.844 Y107.047 E169.25343
G1 X75.107 Y107.047 E169.31735
G1 X43.156 Y138.998 E173.23586
G1 X43.156 Y138.260 E173.29984
G1 X74.369 Y107.047 E177.12792
G1 X73.632 Y107.047 E177.19184
G1 X43.156 Y137.523 E180.92946
G1 X43.156 Y136.785 E180.99345
G1 X72.894 Y107.047 E184.64062
G1 X72.157 Y107.047 E184.70454
G1 X43.156 Y136.048 E188.26127
G1 X43.156 Y135.310 E188.32525
G1 X71.419 Y107.047 E191.79154
G1 X70.682 Y107.047 E191.85547
G1 X43.156 Y134.573 E195.23131
G1 X43.156 Y133.835 E195.29530
G1 X69.944 Y107.047 E198.58069
G1 X69.207 Y107.047 E198.64462
G1 X43.156 Y133.098 E201.83957
G1 X43.156 Y132.360 E201.90356
G1 X68.469 Y107.047 E205.00806
G1 X67.732 Y107.047 E205.07199
G1 X43.156 Y131.623 E208.08605
G1 X43.156 Y130.886 E208.14997
G1 X66.995 Y107.048 E211.07359
G1 X66.257 Y107.047 E211.13757
G1 X43.156 Y130.148 E213.97074
G1 X43.156 Y129.411 E214.03467
G1 X65.520 Y107.048 E216.77739
G1 X64.782 Y107.047 E216.84138
G1 X43.156 Y128.673 E219.49365
G1 X43.156 Y127.936 E219.55758
G1 X64.045 Y107.048 E222.11941
G1 X63.307 Y107.047 E222.18340
G1 X43.156 Y127.198 E224.65478
G1 X43.156 Y126.461 E224.71871
G1 X53.345 Y116.273 E225.96824
G1 X53.350 Y116.267 F7800.000
G1 X62.570 Y107.048 F3600.000 E227.09895
G1 X61.832 Y107.047 E227.16293
G1 X53.705 Y115.174 E228.15965
G1 X54.060 Y114.082 E228.25926
G1 X61.095 Y107.047 E229.12198
G1 X60.357 Y107.047 E229.18597
G1 X54.165 Y113.239 E229.94535
G1 X53.985 Y112.683 E229.99607
G1 X59.620 Y107.047 E230.68719
G1 X58.882 Y107.047 E230.75117
G1 X53.803 Y112.126 E231.37403
G1 X53.623 Y111.570 E231.42475
G1 X58.145 Y107.047 E231.97935
G1 X57.407 Y107.047 E232.04334
G1 X53.442 Y111.013 E232.52968
G1 X53.193 Y110.524 F7800.000
G1 X56.670 Y107.047 F3600.000 E232.95611
G1 X55.932 Y107.047 E233.02010
G1 X52.765 Y110.214 E233.40847
G1 X52.339 Y109.904 E233.45422
G1 X55.195 Y107.047 E233.80452
G1 X54.458 Y107.048 E233.86844
G1 X51.912 Y109.594 E234.18068
G1 X51.484 Y109.283 E234.22651
G1 X53.720 Y107.047 E234.50069
G1 X52.983 Y107.048 E234.56461
G1 X51.058 Y108.973 E234.80073
G1 X50.468 Y108.824 F7800.000
G1 X52.245 Y107.047 F3600.000 E235.01867
G1 X51.508 Y107.048 E235.08260
G1 X49.731 Y108.825 E235.30054
G1 X48.993 Y108.824 E235.36453
G1 X50.770 Y107.047 E235.58249
G1 X50.033 Y107.048 E235.64641
G1 X48.256 Y108.825 E235.86437
G1 X47.447 Y107.420 F7800.000
G1 X43.656 Y111.212 F3600.000 E236.32942
G1 X43.316 Y112.289 E236.42742
G1 X48.438 Y107.167 E237.05563
G1 X49.295 Y107.047 E237.13065
G1 X46.726 Y109.616 E237.44570
G1 X45.509 Y110.833 F7800.000
G1 X43.214 Y113.128 F3600.000 E237.72715
G1 X43.156 Y113.924 E237.79637
G1 X45.154 Y111.926 E238.04142
G1 X44.799 Y113.018 E238.14102
G1 X43.156 Y114.661 E238.34252
G1 X43.156 Y115.399 E238.40651
G1 X44.907 Y113.649 E238.62119
G1 X45.087 Y114.205 E238.67191
G1 X43.156 Y116.136 E238.90878
G1 X43.156 Y116.874 E238.97276
G1 X45.269 Y114.762 E239.23182
G1 X45.449 Y115.318 E239.28254
G1 X43.156 Y117.611 E239.56378
G1 X43.156 Y118.349 E239.62777
G1 X45.630 Y115.875 E239.93119
G1 X45.977 Y116.266 F7800.000
G1 X43.156 Y119.086 F3600.000 E240.27713
G1 X43.156 Y119.823 E240.34106
G1 X46.403 Y116.576 E240.73938
G1 X46.831 Y116.886 E240.78521
G1 X43.156 Y120.561 E241.23591
G1 X43.156 Y121.298 E241.29984
G1 X47.258 Y117.196 E241.80292
G1 X47.685 Y117.507 E241.84875
G1 X43.156 Y122.036 E242.40421
G1 X43.156 Y122.773 E242.46814
G1 X48.112 Y117.817 E243.07598
G1 X48.825 Y117.842 E243.13784
G1 X43.156 Y123.511 E243.83307
G1 X43.156 Y124.248 E243.89700
G1 X49.562 Y117.842 E244.68269
G1 X50.300 Y117.842 E244.74667
G1 X43.156 Y124.986 E245.62279
G1 X43.156 Y125.723 E245.68671
G1 X51.037 Y117.842 E246.65328
G1 F1800.000 E245.65328
G92 E0
G1 X146.966 Y84.099 F7800.000
G1 F1800.000 E1.00000
G1 X149.150 Y82.512 F1800.000 E1.23333
G1 X151.850 Y82.512 E1.46666
G1 X154.034 Y84.099 E1.69999
G1 X154.869 Y86.667 E1.93329
G1 X154.034 Y89.234 E2.16658
G1 X151.850 Y90.821 E2.39992
G1 X149.150 Y90.821 E2.63324
G1 X146.966 Y89.234 E2.86657
G1 X146.131 Y86.667 E3.09987
G1 X146.942 Y84.173 E3.32643
G1 X146.966 Y84.099 E3.33317
G1 X147.408 Y84.420 F7800.000
G1 X149.319 Y83.032 F1800.000 E3.53732
G1 X151.681 Y83.032 E3.74146
G1 X153.592 Y84.420 E3.94561
G1 X154.322 Y86.667 E4.14973
G1 X153.592 Y88.913 E4.35385
G1 X151.681 Y90.302 E4.55800
G1 X149.319 Y90.302 E4.76214
G1 X147.408 Y88.913 E4.96630
G1 X146.678 Y86.667 E5.17041
G1 X147.384 Y84.494 E5.36779
G1 X147.408 Y84.420 E5.37453
G1 X147.850 Y84.741 F7800.000
G1 X149.488 Y83.551 F1800.000 E5.54950
G1 X151.512 Y83.551 E5.72446
G1 X153.150 Y84.741 E5.89943
G1 X153.776 Y86.667 E6.07437
G1 X153.150 Y88.592 E6.24931
G1 X151.512 Y89.782 E6.42428
G1 X149.488 Y89.782 E6.59924
G1 X147.850 Y88.592 E6.77421
G1 X147.224 Y86.667 E6.94915
G1 X147.826 Y84.816 E7.11735
G1 X147.850 Y84.741 E7.12408
G1 X147.689 Y84.247 F7800.000
G1 F1800.000 E6.12408
G92 E0
G1 X149.150 Y40.821 F7800.000
G1 F1800.000 E1.00000
G1 X146.966 Y39.234 F1800.000 E1.23333
G1 X146.131 Y36.667 E1.46663
G1 X146.966 Y34.099 E1.69993
G1 X149.150 Y32.512 E1.93326
G1 X151.850 Y32.512 E2.16658
G1 X154.034 Y34.099 E2.39991
G1 X154.869 Y36.667 E2.63321
G1 X154.034 Y39.234 E2.86651
G1 X151.850 Y40.821 E3.09984
G1 X149.228 Y40.821 E3.32643
G1 X149.150 Y40.821 E3.33317
G1 X149.319 Y40.302 F7800.000
G1 X147.408 Y38.913 F1800.000 E3.53732
G1 X146.678 Y36.667 E3.74144
G1 X147.408 Y34.420 E3.94556
G1 X149.319 Y33.032 E4.14971
G1 X151.681 Y33.032 E4.35385
G1 X153.592 Y34.420 E4.55800
G1 X154.322 Y36.667 E4.76212
G1 X153.592 Y38.913 E4.96624
G1 X151.681 Y40.302 E5.17039
G1 X149.397 Y40.302 E5.36779
G1 X149.319 Y40.302 E5.37453
G1 X149.488 Y39.782 F7800.000
G1 X147.850 Y38.592 F1800.000 E5.54950
G1 X147.224 Y36.667 E5.72444
G1 X147.850 Y34.741 E5.89938
G1 X149.488 Y33.551 E6.07435
G1 X151.512 Y33.551 E6.24931
G1 X153.150 Y34.741 E6.42428
G1 X153.776 Y36.667 E6.59922
G1 X153.150 Y38.592 E6.77415
G1 X151.512 Y39.782 E6.94913
G1 X149.566 Y39.782 E7.11735
G1 X149.488 Y39.782 E7.12408
G1 X149.067 Y40.088 F7800.000
G1 F1800.000 E6.12408
G92 E0
G1 X54.869 Y36.667 F7800.000
G1 F1800.000 E1.00000
G1 X54.034 Y39.234 F1800.000 E1.23330
G1 X51.850 Y40.821 E1.46663
G1 X49.150 Y40.821 E1.69996
G1 X46.966 Y39.234 E1.93329
G1 X46.131 Y36.667 E2.16658
G1 X46.966 Y34.099 E2.39988
G1 X49.150 Y32.512 E2.63321
G1 X51.850 Y32.512 E2.86654
G1 X54.034 Y34.099 E3.09987
G1 X54.845 Y36.593 E3.32643
G1 X54.869 Y36.667 E3.33317
G1 X54.322 Y36.667 F7800.000
G1 X53.592 Y38.913 F1800.000 E3.53729
G1 X51.681 Y40.302 E3.74144
G1 X49.319 Y40.302 E3.94558
G1 X47.408 Y38.913 E4.14973
G1 X46.678 Y36.667 E4.35385
G1 X47.408 Y34.420 E4.55797
G1 X49.319 Y33.032 E4.76212
G1 X51.681 Y33.032 E4.96626
G1 X53.592 Y34.420 E5.17041
G1 X54.298 Y36.593 E5.36779
G1 X54.322 Y36.667 E5.37453
G1 X53.776 Y36.667 F7800.000
G1 X53.150 Y38.592 F1800.000 E5.54947
G1 X51.512 Y39.782 E5.72444
G1 X49.488 Y39.782 E5.89940
G1 X47.850 Y38.592 E6.07437
G1 X47.224 Y36.667 E6.24931
G1 X47.850 Y34.741 E6.42424
G1 X49.488 Y33.551 E6.59922
G1 X51.512 Y33.551 E6.77417
G1 X53.150 Y34.741 E6.94915
G1 X53.752 Y36.593 E7.11735
G1 X53.776 Y36.667 E7.12408
G1 X54.196 Y36.972 F7800.000
G1 F1800.000 E6.12408
G92 E0
G1 X51.850 Y82.512 F7800.000
G1 F1800.000 E1.00000
G1 X54.034 Y84.099 F1800.000 E1.23333
G1 X54.869 Y86.667 E1.46663
G1 X54.034 Y89.234 E1.69993
G1 X51.850 Y90.821 E1.93326
G1 X49.150 Y90.821 E2.16658
G1 X46.966 Y89.234 E2.39991
G1 X46.131 Y86.667 E2.63321
G1 X46.966 Y84.099 E2.86651
G1 X49.150 Y82.512 E3.09984
G1 X51.772 Y82.512 E3.32643
G1 X51.850 Y82.512 E3.33317
G1 X51.681 Y83.032 F7800.000
G1 X53.592 Y84.420 F1800.000 E3.53732
G1 X54.322 Y86.667 E3.74144
G1 X53.592 Y88.913 E3.94556
G1 X51.681 Y90.302 E4.14971
G1 X49.319 Y90.302 E4.35385
G1 X47.408 Y88.913 E4.55800
G1 X46.678 Y86.667 E4.76212
G1 X47.408 Y84.420 E4.96624
G1 X49.319 Y83.032 E5.17039
G1 X51.603 Y83.032 E5.36779
G1 X51.681 Y83.032 E5.37453
G1 X51.512 Y83.551 F7800.000
G1 X53.150 Y84.741 F1800.000 E5.54950
G1 X53.776 Y86.667 E5.72444
G1 X53.150 Y88.592 E5.89938
G1 X51.512 Y89.782 E6.07435
G1 X49.488 Y89.782 E6.24931
G1 X47.850 Y88.592 E6.42428
G1 X47.224 Y86.667 E6.59922
G1 X47.850 Y84.741 E6.77415
G1 X49.488 Y83.551 E6.94913
G1 X51.434 Y83.551 E7.11735
G1 X51.512 Y83.551 E7.12408
G1 X51.933 Y83.246 F7800.000
G1 F1800.000 E6.12408
G92 E0
G1 X44.005 Y35.065 F7800.000
G1 F1800.000 E1.00000
G1 X44.577 Y33.558 F1800.000 E1.13929
G1 X45.494 Y32.231 E1.27866
G1 X46.700 Y31.162 E1.41798
G1 X48.128 Y30.413 E1.55733
G1 X49.694 Y30.026 E1.69673
G1 X151.306 Y30.026 E10.47757
G1 X152.872 Y30.413 E10.61697
G1 X154.300 Y31.162 E10.75632
G1 X155.506 Y32.231 E10.89563
G1 X156.423 Y33.558 E11.03500
G1 X156.995 Y35.065 E11.17430
G1 X157.198 Y36.745 E11.32052
G1 X157.198 Y86.588 E15.62773
G1 X156.995 Y88.268 E15.77395
G1 X156.423 Y89.775 E15.91325
G1 X155.506 Y91.102 E16.05262
G1 X154.300 Y92.171 E16.19193
G1 X152.872 Y92.921 E16.33128
G1 X151.306 Y93.307 E16.47068
G1 X49.694 Y93.307 E25.25152
G1 X48.128 Y92.921 E25.39092
G1 X46.700 Y92.171 E25.53027
G1 X45.494 Y91.102 E25.66959
G1 X44.577 Y89.775 E25.80896
G1 X44.005 Y88.268 E25.94825
G1 X43.802 Y86.588 E26.09448
G1 X43.802 Y36.745 E30.40168
G1 X43.996 Y35.143 E30.54117
G1 X44.005 Y35.065 E30.54791
G1 X43.497 Y34.940 F7800.000
G1 X44.114 Y33.315 F1800.000 E30.69812
G1 X45.102 Y31.884 E30.84838
G1 X46.403 Y30.731 E30.99860
G1 X47.942 Y29.923 E31.14886
G1 X49.631 Y29.507 E31.29916
G1 X151.369 Y29.507 E40.09091
G1 X153.058 Y29.923 E40.24121
G1 X154.597 Y30.731 E40.39147
G1 X155.898 Y31.884 E40.54169
G1 X156.886 Y33.315 E40.69195
G1 X157.503 Y34.940 E40.84216
G1 X157.718 Y36.714 E40.99656
G1 X157.718 Y86.619 E45.30918
G1 X157.503 Y88.393 E45.46358
G1 X156.886 Y90.018 E45.61379
G1 X155.898 Y91.449 E45.76406
G1 X154.597 Y92.602 E45.91428
G1 X153.058 Y93.410 E46.06454
G1 X151.369 Y93.827 E46.21484
G1 X49.631 Y93.827 E55.00658
G1 X47.942 Y93.410 E55.15689
G1 X46.403 Y92.602 E55.30714
G1 X45.102 Y91.449 E55.45736
G1 X44.114 Y90.018 E55.60763
G1 X43.497 Y88.393 E55.75784
G1 X43.282 Y86.619 E55.91224
G1 X43.282 Y36.714 E60.22486
G1 X43.488 Y35.018 E60.37252
G1 X43.497 Y34.940 E60.37926
G1 X42.989 Y34.815 F7800.000
G1 X43.650 Y33.072 F1800.000 E60.54039
G1 X44.710 Y31.537 E60.70155
G1 X46.105 Y30.300 E60.86267
G1 X47.757 Y29.434 E61.02383
G1 X49.568 Y28.987 E61.18504
G1 X151.432 Y28.987 E69.98770
G1 X153.243 Y29.434 E70.14890
G1 X154.895 Y30.300 E70.31006
G1 X156.290 Y31.537 E70.47118
G1 X157.350 Y33.072 E70.63235
G1 X158.011 Y34.815 E70.79348
G1 X158.237 Y36.683 E70.95604
G1 X158.237 Y86.651 E75.27409
G1 X158.011 Y88.518 E75.43666
G1 X157.350 Y90.262 E75.59778
G1 X156.290 Y91.796 E75.75895
G1 X154.895 Y93.033 E75.92007
G1 X153.243 Y93.899 E76.08123
G1 X151.432 Y94.346 E76.24243
G1 X49.568 Y94.346 E85.04510
G1 X47.757 Y93.899 E85.20630
G1 X46.105 Y93.033 E85.36746
G1 X44.710 Y91.796 E85.52858
G1 X43.650 Y90.262 E85.68975
G1 X42.989 Y88.518 E85.85087
G1 X42.763 Y86.651 E86.01344
G1 X42.763 Y36.683 E90.33149
G1 X42.979 Y34.892 E90.48732
G1 X42.989 Y34.815 E90.49405
G1 X43.493 Y34.691 F7800.000
G1 F1800.000 E89.49405
G92 E0
G1 X46.509 Y34.166 F7800.000
G1 F1800.000 E1.00000
G1 X44.214 Y36.461 F3600.000 E1.28146
G1 X44.156 Y37.257 E1.35068
G1 X46.154 Y35.259 E1.59572
G1 X45.799 Y36.352 E1.69533
G1 X44.156 Y37.995 E1.89682
G1 X44.156 Y38.732 E1.96081
G1 X45.907 Y36.982 E2.17549
G1 X46.087 Y37.538 E2.22621
G1 X44.156 Y39.470 E2.46308
G1 X44.156 Y40.207 E2.52707
G1 X46.269 Y38.095 E2.78613
G1 X46.449 Y38.651 E2.83685
G1 X44.156 Y40.945 E3.11808
G1 X44.156 Y41.682 E3.18207
G1 X46.630 Y39.208 E3.48550
G1 X46.977 Y39.599 F7800.000
G1 X44.156 Y42.420 F3600.000 E3.83143
G1 X44.156 Y43.157 E3.89536
G1 X47.403 Y39.909 E4.29369
G1 X47.831 Y40.220 E4.33952
G1 X44.156 Y43.895 E4.79021
G1 X44.156 Y44.632 E4.85414
G1 X48.258 Y40.530 E5.35722
G1 X48.685 Y40.840 E5.40306
G1 X44.156 Y45.370 E5.95852
G1 X44.156 Y46.107 E6.02244
G1 X49.112 Y41.150 E6.63028
G1 X49.825 Y41.176 E6.69215
G1 X44.156 Y46.845 E7.38738
G1 X44.156 Y47.582 E7.45131
G1 X50.562 Y41.175 E8.23699
G1 X51.300 Y41.176 E8.30097
G1 X44.156 Y48.320 E9.17710
G1 X44.156 Y49.057 E9.24102
G1 X52.037 Y41.175 E10.20758
G1 F1800.000 E9.20758
G92 E0
G1 X54.345 Y39.606 F7800.000
G1 F1800.000 E1.00000
G1 X44.156 Y49.795 F3600.000 E2.24953
G1 X44.156 Y50.532 E2.31346
G1 X64.307 Y30.380 E4.78484
G1 X65.045 Y30.381 E4.84883
G1 X44.156 Y51.269 E7.41066
G1 X44.156 Y52.007 E7.47459
G1 X65.782 Y30.381 E10.12686
G1 X66.520 Y30.381 E10.19085
G1 X44.156 Y52.744 E12.93357
G1 X44.156 Y53.482 E12.99749
G1 X67.257 Y30.381 E15.83066
G1 X67.995 Y30.381 E15.89465
G1 X44.156 Y54.219 E18.81827
G1 X44.156 Y54.957 E18.88219
G1 X68.732 Y30.381 E21.89625
G1 X69.469 Y30.380 E21.96017
G1 X44.156 Y55.694 E25.06468
G1 X44.156 Y56.432 E25.12867
G1 X70.207 Y30.381 E28.32362
G1 X70.944 Y30.380 E28.38755
G1 X44.156 Y57.169 E31.67294
G1 X44.156 Y57.907 E31.73693
G1 X71.682 Y30.381 E35.11277
G1 X72.419 Y30.380 E35.17670
G1 X44.156 Y58.644 E38.64298
G1 X44.156 Y59.382 E38.70697
G1 X73.157 Y30.381 E42.26369
G1 X73.894 Y30.380 E42.32762
G1 X44.156 Y60.119 E45.97479
G1 X44.156 Y60.857 E46.03877
G1 X74.632 Y30.381 E49.77640
G1 X75.369 Y30.380 E49.84032
G1 X44.156 Y61.594 E53.66839
G1 X44.156 Y62.332 E53.73238
G1 X76.107 Y30.381 E57.65089
G1 X76.844 Y30.380 E57.71481
G1 X44.156 Y63.069 E61.72376
G1 X44.156 Y63.807 E61.78775
G1 X77.582 Y30.381 E65.88716
G1 X78.319 Y30.380 E65.95108
G1 X44.156 Y64.544 E70.14093
G1 X44.156 Y65.281 E70.20492
G1 X79.057 Y30.381 E74.48521
G1 X79.794 Y30.381 E74.54913
G1 X44.156 Y66.019 E78.91987
G1 X44.156 Y66.757 E78.98386
G1 X80.532 Y30.381 E83.44505
G1 X81.269 Y30.381 E83.50897
G1 X44.156 Y67.494 E88.06060
G1 X44.156 Y68.231 E88.12459
G1 X82.007 Y30.381 E92.76666
G1 X82.744 Y30.381 E92.83059
G1 X44.156 Y68.969 E97.56311
G1 X44.156 Y69.706 E97.62704
G1 X83.481 Y30.380 E102.45001
G1 X84.219 Y30.381 E102.51400
G1 X44.156 Y70.444 E107.42741
G1 X44.156 Y71.181 E107.49134
G1 X84.956 Y30.380 E112.49519
G1 X85.694 Y30.381 E112.55918
G1 X44.156 Y71.919 E117.65349
G1 X44.156 Y72.656 E117.71741
G1 X86.431 Y30.380 E122.90215
G1 X87.169 Y30.381 E122.96614
G1 X44.156 Y73.394 E128.24132
G1 X44.156 Y74.131 E128.30525
G1 X87.906 Y30.380 E133.67089
G1 X88.644 Y30.381 E133.73488
G1 X44.156 Y74.869 E139.19096
G1 X44.156 Y75.606 E139.25489
G1 X89.381 Y30.380 E144.80142
G1 X90.119 Y30.381 E144.86540
G1 X44.156 Y76.344 E150.50237
G1 X44.156 Y77.081 E150.56630
G1 X90.856 Y30.380 E156.29372
G1 X91.594 Y30.381 E156.35771
G1 X44.156 Y77.819 E162.17558
G1 X44.156 Y78.556 E162.23950
G1 X92.331 Y30.380 E168.14781
G1 X93.069 Y30.381 E168.21179
G1 X44.156 Y79.294 E174.21055
G1 X44.156 Y80.031 E174.27448
G1 X93.806 Y30.381 E180.36368
G1 X94.544 Y30.381 E180.42767
G1 X44.156 Y80.768 E186.60732
G1 X44.156 Y81.506 E186.67124
G1 X95.281 Y30.381 E192.94133
G1 X96.018 Y30.380 E193.00526
G1 X44.156 Y82.243 E199.36580
G1 X44.156 Y82.981 E199.42979
G1 X96.756 Y30.381 E205.88077
G1 X97.493 Y30.380 E205.94470
G1 X44.156 Y83.718 E212.48613
G1 X44.156 Y84.456 E212.55012
G1 X98.231 Y30.381 E219.18199
G1 X98.968 Y30.380 E219.24592
G1 X44.156 Y85.193 E225.96824
G1 F1800.000 E224.96824
G92 E0
G1 X48.268 Y82.555 F7800.000
G1 F1800.000 E1.00000
G1 X100.443 Y30.380 F3600.000 E7.39885
G1 X99.706 Y30.381 E7.46277
G1 X44.156 Y85.931 E14.27554
G1 X44.156 Y86.668 E14.33947
G1 X46.438 Y84.386 E14.61931
G1 X46.083 Y85.479 E14.71897
G1 X44.230 Y87.332 E14.94621
G1 X44.309 Y87.989 E15.00363
G1 X45.762 Y86.537 E15.18176
G1 X45.943 Y87.094 E15.23255
G1 X44.453 Y88.584 E15.41531
G1 X44.655 Y89.118 E15.46486
G1 X46.124 Y87.650 E15.64492
G1 X46.305 Y88.207 E15.69572
G1 X44.859 Y89.653 E15.87309
G1 X45.151 Y90.097 E15.91921
G1 X46.485 Y88.763 E16.08282
G1 X46.667 Y89.320 E16.13361
G1 X45.453 Y90.534 E16.28246
G1 X45.764 Y90.960 E16.32819
G1 X47.062 Y89.661 E16.48743
G1 X47.490 Y89.972 E16.53326
G1 X46.155 Y91.306 E16.69693
G1 X46.546 Y91.653 E16.74219
G1 X47.917 Y90.282 E16.91030
G1 X48.344 Y90.593 E16.95613
G1 X46.962 Y91.975 E17.12562
G1 X47.446 Y92.228 E17.17295
G1 X48.771 Y90.903 E17.33549
G1 X49.235 Y91.175 F7800.000
G1 X47.929 Y92.481 F3600.000 E17.49568
G1 X48.472 Y92.677 E17.54573
G1 X49.973 Y91.176 E17.72980
G1 X50.710 Y91.175 E17.79372
G1 X49.063 Y92.822 E17.99569
G1 X49.671 Y92.953 E18.04958
G1 X51.448 Y91.176 E18.26753
G1 X52.188 Y91.172 E18.33172
G1 X50.408 Y92.952 E18.55004
G1 F1800.000 E17.55004
G92 E0
G1 X52.143 Y82.368 F7800.000
G1 F1800.000 E1.00000
G1 X104.131 Y30.381 F3600.000 E7.37587
G1 X104.868 Y30.380 E7.43980
G1 X52.570 Y82.678 E13.85374
G1 X52.998 Y82.989 E13.89957
G1 X105.606 Y30.381 E20.35157
G1 X106.343 Y30.381 E20.41549
G1 X53.424 Y83.299 E26.90556
G1 X53.852 Y83.610 E26.95139
G1 X107.081 Y30.381 E33.47952
G1 X107.818 Y30.381 E33.54345
G1 X54.279 Y83.920 E40.10964
G1 X54.478 Y84.458 E40.15944
G1 X108.556 Y30.381 E46.79161
G1 X109.293 Y30.381 E46.85553
G1 X54.659 Y85.015 E53.55597
G1 X54.840 Y85.571 E53.60668
G1 X110.030 Y30.380 E60.37537
G1 X110.768 Y30.381 E60.43936
G1 X55.021 Y86.128 E67.27632
G1 X55.201 Y86.684 E67.32703
G1 X111.505 Y30.380 E74.23224
G1 X112.243 Y30.381 E74.29623
G1 X54.989 Y87.635 E81.31799
G1 X54.633 Y88.727 E81.41761
G1 X112.980 Y30.380 E88.57337
G1 X113.718 Y30.381 E88.63735
G1 X51.146 Y92.953 E96.31134
G1 X51.883 Y92.953 E96.37526
G1 X114.455 Y30.380 E104.04925
G1 X115.193 Y30.381 E104.11324
G1 X52.621 Y92.953 E111.78723
G1 X53.358 Y92.953 E111.85116
G1 X115.930 Y30.380 E119.52515
G1 X116.668 Y30.381 E119.58913
G1 X54.096 Y92.953 E127.26311
G1 X54.833 Y92.953 E127.32703
G1 X117.405 Y30.380 E135.00103
G1 X118.143 Y30.381 E135.06501
G1 X55.571 Y92.953 E142.73901
G1 X56.308 Y92.953 E142.80293
G1 X118.880 Y30.381 E150.47688
G1 X119.618 Y30.381 E150.54090
G1 X57.046 Y92.953 E158.21489
G1 X57.783 Y92.953 E158.27881
G1 X120.355 Y30.381 E165.95277
G1 X121.093 Y30.381 E166.01679
G1 X58.521 Y92.953 E173.69079
G1 X59.258 Y92.953 E173.75472
G1 X121.830 Y30.381 E181.42867
G1 X122.567 Y30.380 E181.49263
G1 X59.995 Y92.952 E189.16664
G1 X60.733 Y92.953 E189.23063
G1 X123.305 Y30.381 E196.90459
G1 X124.042 Y30.380 E196.96855
G1 X61.470 Y92.952 E204.64256
G1 X62.208 Y92.953 E204.70655
G1 X124.780 Y30.381 E212.38052
G1 X125.517 Y30.380 E212.44447
G1 X62.945 Y92.952 E220.11849
G1 X63.683 Y92.953 E220.18248
G1 X126.255 Y30.381 E227.85645
G1 X126.992 Y30.380 E227.92041
G1 X64.420 Y92.952 E235.59443
G1 X65.158 Y92.953 E235.65841
G1 X127.730 Y30.381 E243.33239
G1 X128.467 Y30.380 E243.39635
G1 X65.895 Y92.953 E251.07038
G1 X66.633 Y92.953 E251.13437
G1 X129.205 Y30.381 E258.80835
G1 X129.942 Y30.380 E258.87231
G1 X67.370 Y92.953 E266.54633
G1 X68.108 Y92.953 E266.61032
G1 X130.680 Y30.381 E274.28431
G1 X131.417 Y30.381 E274.34820
G1 X68.845 Y92.953 E282.02215
G1 X69.583 Y92.953 E282.08614
G1 X132.155 Y30.381 E289.76013
G1 X132.892 Y30.381 E289.82403
G1 X70.320 Y92.953 E297.49798
G1 X71.058 Y92.953 E297.56196
G1 X133.630 Y30.381 E305.23596
G1 X134.367 Y30.381 E305.29986
G1 X71.795 Y92.953 E312.97381
G1 X72.533 Y92.953 E313.03780
G1 X135.105 Y30.381 E320.71180
G1 X135.842 Y30.381 E320.77570
G1 X73.270 Y92.953 E328.44966
G1 X74.007 Y92.952 E328.51359
G1 X136.579 Y30.380 E336.18760
G1 X137.317 Y30.381 E336.25156
G1 X74.745 Y92.953 E343.92552
G1 X75.482 Y92.952 E343.98945
G1 X138.054 Y30.380 E351.66346
G1 X138.792 Y30.381 E351.72742
G1 X76.220 Y92.953 E359.40139
G1 X76.957 Y92.952 E359.46532
G1 X139.529 Y30.380 E367.13934
G1 X140.267 Y30.381 E367.20330
G1 X77.695 Y92.953 E374.87727
G1 X78.432 Y92.953 E374.94119
G1 X141.004 Y30.380 E382.61522
G1 X141.742 Y30.381 E382.67917
G1 X79.170 Y92.953 E390.35316
G1 X79.907 Y92.953 E390.41708
G1 X142.479 Y30.380 E398.09111
G1 X143.217 Y30.381 E398.15507
G1 X80.645 Y92.953 E405.82905
G1 X81.382 Y92.953 E405.89297
G1 X143.954 Y30.380 E413.56701
G1 X144.692 Y30.381 E413.63097
G1 X82.120 Y92.953 E421.30496
G1 X82.857 Y92.953 E421.36888
G1 X145.429 Y30.381 E429.04283
G1 X146.167 Y30.381 E429.10685
G1 X83.595 Y92.953 E436.78084
G1 X84.332 Y92.953 E436.84476
G1 X146.904 Y30.381 E444.51872
G1 X147.642 Y30.381 E444.58274
G1 X85.070 Y92.953 E452.25674
G1 X85.807 Y92.953 E452.32067
G1 X148.379 Y30.381 E459.99462
G1 X149.116 Y30.380 E460.05858
G1 X86.544 Y92.952 E467.73259
G1 F1800.000 E466.73259
G92 E0
G1 X100.556 Y92.953 F7800.000
G1 F1800.000 E1.00000
G1 X152.731 Y40.778 F3600.000 E7.39877
G1 X151.596 Y41.176 F7800.000
G1 X99.819 Y92.953 F3600.000 E13.74885
G1 X99.081 Y92.953 E13.81280
G1 X150.858 Y41.176 E20.16283
G1 X150.121 Y41.176 E20.22675
G1 X98.344 Y92.953 E26.57682
G1 X97.606 Y92.953 E26.64078
G1 X149.383 Y41.176 E32.99081
G1 X148.857 Y40.965 F7800.000
G1 X96.869 Y92.953 F3600.000 E39.36672
G1 X96.132 Y92.953 E39.43067
G1 X148.429 Y40.655 E45.84461
G1 X148.003 Y40.344 E45.89038
G1 X95.394 Y92.953 E52.34242
G1 X94.657 Y92.953 E52.40638
G1 X147.575 Y40.034 E58.89646
G1 X147.149 Y39.723 E58.94224
G1 X93.919 Y92.953 E65.47042
G1 X93.182 Y92.953 E65.53437
G1 X146.721 Y39.413 E72.10058
G1 X146.522 Y38.875 E72.15036
G1 X92.444 Y92.953 E78.78260
G1 X91.707 Y92.953 E78.84654
G1 X146.341 Y38.319 E85.54698
G1 X146.160 Y37.762 E85.59779
G1 X90.969 Y92.952 E92.36652
G1 X90.232 Y92.953 E92.43045
G1 X145.979 Y37.206 E99.26739
G1 X145.798 Y36.649 E99.31820
G1 X89.494 Y92.952 E106.22343
G1 X88.757 Y92.953 E106.28735
G1 X146.011 Y35.698 E113.30918
G1 X146.366 Y34.605 E113.40885
G1 X88.019 Y92.952 E120.56470
G1 X87.282 Y92.953 E120.62863
G1 X149.854 Y30.381 E128.30259
G1 X150.591 Y30.380 E128.36655
G1 X148.810 Y32.161 E128.58497
G1 X149.552 Y32.158 E128.64930
G1 X151.329 Y30.381 E128.86720
G1 X151.936 Y30.511 E128.92101
G1 X150.289 Y32.158 E129.12296
G1 X151.027 Y32.158 E129.18698
G1 X152.528 Y30.657 E129.37106
G1 X153.070 Y30.851 E129.42102
G1 X151.764 Y32.158 E129.58125
G1 X152.229 Y32.431 F7800.000
G1 X153.554 Y31.106 F3600.000 E129.74374
G1 X154.038 Y31.359 E129.79111
G1 X152.656 Y32.741 E129.96062
G1 X153.083 Y33.051 E130.00641
G1 X154.454 Y31.680 E130.17453
G1 X154.845 Y32.027 E130.21983
G1 X153.510 Y33.362 E130.38353
G1 X153.937 Y33.672 E130.42933
G1 X155.236 Y32.373 E130.58861
G1 X155.547 Y32.800 E130.63439
G1 X154.334 Y34.013 E130.78317
G1 X154.514 Y34.570 E130.83393
G1 X155.848 Y33.236 E130.99755
G1 X156.141 Y33.680 E131.04372
G1 X154.696 Y35.126 E131.22103
G1 X154.876 Y35.683 E131.27180
G1 X156.345 Y34.214 E131.45189
G1 X156.547 Y34.749 E131.50150
G1 X155.057 Y36.240 E131.68428
G1 X155.238 Y36.796 E131.73500
G1 X156.690 Y35.344 E131.91309
G1 X156.770 Y36.002 E131.97057
G1 X154.918 Y37.854 E132.19775
G1 X154.562 Y38.947 E132.29741
G1 X156.844 Y36.665 E132.57723
G1 X156.844 Y37.402 E132.64115
G1 X101.294 Y92.953 E139.45397
G1 X102.031 Y92.953 E139.51793
G1 X156.844 Y38.140 E146.24026
G1 X156.844 Y38.877 E146.30419
G1 X102.769 Y92.953 E152.93612
G1 X103.506 Y92.953 E153.00008
G1 X156.844 Y39.615 E159.54152
G1 X156.844 Y40.352 E159.60544
G1 X104.244 Y92.953 E166.05647
G1 X104.981 Y92.953 E166.12043
G1 X156.844 Y41.090 E172.48096
G1 X156.844 Y41.827 E172.54489
G1 X105.719 Y92.953 E178.81503
G1 X106.456 Y92.953 E178.87898
G1 X156.844 Y42.565 E185.05863
G1 X156.844 Y43.302 E185.12256
G1 X107.194 Y92.953 E191.21180
G1 X107.931 Y92.953 E191.27575
G1 X156.844 Y44.039 E197.27459
G1 X156.844 Y44.777 E197.33858
G1 X108.669 Y92.953 E203.24693
G1 X109.406 Y92.953 E203.31088
G1 X156.844 Y45.514 E209.12882
G1 X156.844 Y46.252 E209.19281
G1 X110.144 Y92.953 E214.92026
G1 X110.881 Y92.953 E214.98421
G1 X156.844 Y46.989 E220.62126
G1 X156.844 Y47.727 E220.68525
G1 X111.619 Y92.953 E226.23180
G1 X112.356 Y92.953 E226.29575
G1 X156.844 Y48.464 E231.75190
G1 X156.844 Y49.202 E231.81589
G1 X113.093 Y92.953 E237.18154
G1 X113.831 Y92.953 E237.24550
G1 X156.844 Y49.939 E242.52075
G1 X156.844 Y50.677 E242.58474
G1 X114.568 Y92.953 E247.76950
G1 X115.306 Y92.953 E247.83346
G1 X156.844 Y51.414 E252.92781
G1 X156.844 Y52.152 E252.99180
G1 X116.043 Y92.953 E257.99567
G1 X116.781 Y92.953 E258.05963
G1 X156.844 Y52.889 E262.97310
G1 X156.844 Y53.627 E263.03708
G1 X117.518 Y92.953 E267.86005
G1 X118.256 Y92.953 E267.92401
G1 X156.844 Y54.364 E272.65657
G1 X156.844 Y55.102 E272.72056
G1 X118.993 Y92.953 E277.36264
G1 X119.731 Y92.953 E277.42659
G1 X156.844 Y55.839 E281.97827
G1 X156.844 Y56.577 E282.04225
G1 X120.468 Y92.953 E286.50343
G1 X121.206 Y92.953 E286.56738
G1 X156.844 Y57.314 E290.93817
G1 X156.844 Y58.051 E291.00209
G1 X121.943 Y92.953 E295.28247
G1 X122.681 Y92.953 E295.34642
G1 X156.844 Y58.789 E299.53630
G1 X156.844 Y59.526 E299.60023
G1 X123.418 Y92.953 E303.69970
G1 X124.156 Y92.953 E303.76365
G1 X156.844 Y60.264 E307.77264
G1 X156.844 Y61.001 E307.83657
G1 X124.893 Y92.953 E311.75515
G1 X125.630 Y92.953 E311.81910
G1 X156.844 Y61.739 E315.64719
G1 X156.844 Y62.476 E315.71112
G1 X126.368 Y92.953 E319.44880
G1 X127.105 Y92.953 E319.51275
G1 X156.844 Y63.214 E323.15995
G1 X156.844 Y63.951 E323.22387
G1 X127.843 Y92.953 E326.78066
G1 X128.580 Y92.953 E326.84461
G1 X156.844 Y64.689 E330.31091
G1 X156.844 Y65.426 E330.37484
G1 X129.318 Y92.953 E333.75074
G1 X130.055 Y92.953 E333.81469
G1 X156.844 Y66.164 E337.10010
G1 X156.844 Y66.901 E337.16402
G1 X130.793 Y92.953 E340.35902
G1 X131.530 Y92.953 E340.42298
G1 X156.844 Y67.639 E343.52748
G1 X156.844 Y68.376 E343.59141
G1 X132.268 Y92.953 E346.60551
G1 X133.005 Y92.953 E346.66947
G1 X156.844 Y69.114 E349.59308
G1 X156.844 Y69.851 E349.65700
G1 X133.743 Y92.953 E352.49021
G1 X134.480 Y92.953 E352.55416
G1 X156.844 Y70.589 E355.29692
G1 X156.844 Y71.326 E355.36088
G1 X135.218 Y92.953 E358.01320
G1 X135.955 Y92.953 E358.07715
G1 X156.844 Y72.064 E360.63902
G1 F1800.000 E359.63902
G92 E0
G1 X154.023 Y83.734 F7800.000
G1 F1800.000 E1.00000
G1 X156.844 Y80.913 F3600.000 E1.34596
G1 X156.844 Y80.176 E1.40992
G1 X153.596 Y83.424 E1.80826
G1 X153.169 Y83.114 E1.85404
G1 X156.844 Y79.439 E2.30477
G1 X156.844 Y78.701 E2.36872
G1 X152.742 Y82.803 E2.87183
G1 X152.315 Y82.493 E2.91762
G1 X156.844 Y77.964 E3.47311
G1 X156.844 Y77.226 E3.53706
G1 X151.888 Y82.182 E4.14493
G1 X151.175 Y82.158 E4.20677
G1 X156.844 Y76.489 E4.90204
G1 X156.844 Y75.751 E4.96600
G1 X150.437 Y82.158 E5.75171
G1 X149.700 Y82.158 E5.81567
G1 X156.844 Y75.014 E6.69184
G1 X156.844 Y74.276 E6.75578
G1 X148.963 Y82.158 E7.72239
G1 F1800.000 E6.72239
G92 E0
G1 X146.655 Y83.728 F7800.000
G1 F1800.000 E1.00000
G1 X156.844 Y73.539 F3600.000 E2.24966
G1 X156.844 Y72.801 E2.31362
G1 X136.693 Y92.953 E4.78504
G1 X137.430 Y92.953 E4.84899
G1 X146.650 Y83.733 E5.97976
G1 X146.295 Y84.825 E6.07939
G1 X138.168 Y92.953 E7.07617
G1 X138.905 Y92.953 E7.14012
G1 X145.940 Y85.918 E8.00290
G1 X145.835 Y86.761 E8.07656
G1 X139.643 Y92.953 E8.83597
G1 X140.380 Y92.953 E8.89992
G1 X146.015 Y87.317 E9.59108
G1 X146.196 Y87.874 E9.64182
G1 X141.117 Y92.953 E10.26471
G1 X141.855 Y92.953 E10.32867
G1 X146.377 Y88.430 E10.88330
G1 X146.558 Y88.987 E10.93406
G1 X142.592 Y92.953 E11.42043
G1 X143.330 Y92.953 E11.48439
G1 X146.807 Y89.476 E11.91084
G1 X147.234 Y89.786 E11.95662
G1 X144.067 Y92.953 E12.34500
G1 X144.805 Y92.953 E12.40896
G1 X147.661 Y90.096 E12.75927
G1 X148.088 Y90.407 E12.80506
G1 X145.542 Y92.953 E13.11731
G1 X146.280 Y92.953 E13.18127
G1 X148.515 Y90.717 E13.45547
G1 X148.942 Y91.027 E13.50124
G1 X147.017 Y92.953 E13.73737
G1 X147.755 Y92.953 E13.80132
G1 X149.532 Y91.176 E14.01927
G1 X150.269 Y91.176 E14.08323
G1 X148.492 Y92.953 E14.30118
G1 X149.230 Y92.953 E14.36513
G1 X151.007 Y91.176 E14.58309
G1 X151.744 Y91.176 E14.64704
G1 X149.967 Y92.953 E14.86498
G1 X150.705 Y92.953 E14.92894
